;FLAVOR:Marlin
;TIME:3709
;Filament used: 3.60329m
;Layer height: 0.2
;MINX:23.988
;MINY:18.616
;MINZ:0.2
;MAXX:111.374
;MAXY:73.141
;MAXZ:16
;TARGET_MACHINE.NAME:Creality Ender-3 V3 SE
;Generated with Cura_SteamEngine 5.8.1
M82 ;absolute extrusion mode
M220 S100 ;Reset Feedrate
M221 S100 ;Reset Flowrate

G28 ;Home

M420 S1; Use saved mesh leveling data

G92 E0 ;Reset Extruder
G1 Z2.0 F3000 ;Move Z Axis up
G1 X-3 Y20 Z0.28 F5000.0 ;Move to start position
M190 S65 ; Set bed temperature and wait
M109 S205.0 ; Set hotend temperature and wait
G1 X-3 Y100.0 Z0.28 F1500.0 E15 ;Draw the first line
G1 X-2 Y100.0 Z0.28 F5000.0 ;Move to side a little
G1 X-2 Y20 Z0.28 F1500.0 E30 ;Draw the second line
G92 E0 ;Reset Extruder
G1 E-1.0000 F1800 ;Retract a bit
G1 Z2.0 F3000 ;Move Z Axis up
G1 E0.0000 F1800 

G92 E0
G92 E0
G1 F2400 E-0.8
;LAYER_COUNT:79
;LAYER:0
M107
G1 F300 Z0.4
G0 F9000 X29.1 Y33.366 Z0.4
;TYPE:SKIRT
G1 F300 Z0.2
G1 F2400 E0
G1 F1800 X32.81 Y30.523 E0.15546
G1 X37.155 Y28.718 E0.31195
G1 X40.745 Y28.25 E0.43236
G1 X43.498 Y28.224 E0.52393
G1 X44.289 Y25.498 E0.61834
G1 X45.177 Y23.799 E0.6821
G1 X47.758 Y21.074 E0.80694
G1 X49.537 Y19.837 E0.879
G1 X53.335 Y18.778 E1.01014
G1 X55.534 Y18.616 E1.08348
G1 X58.464 Y19.437 E1.18469
G1 X60.659 Y18.824 E1.26049
G1 X62.866 Y18.662 E1.33409
G1 X63.786 Y18.919 E1.36586
G1 X64.2 Y18.802 E1.38017
G1 X66.439 Y18.639 E1.45484
G1 X68.742 Y19.287 E1.53441
G1 X70.469 Y18.801 E1.59408
G1 X72.678 Y18.639 E1.66775
G1 X76.187 Y19.626 E1.78899
G1 X79.045 Y18.825 E1.88771
G1 X81.247 Y18.663 E1.96114
G1 X85.082 Y19.742 E2.09365
G1 X87.003 Y20.743 E2.1657
G1 X89.661 Y23.534 E2.29389
G1 X90.711 Y25.19 E2.3591
G1 X91.595 Y28.217 E2.46399
G1 X94.496 Y28.244 E2.56048
G1 X98.25 Y28.728 E2.68637
G1 X102.535 Y30.506 E2.84067
G1 X106.248 Y33.351 E2.99625
G1 X109.12 Y37.099 E3.1533
G1 X110.9 Y41.384 E3.30763
G1 X111.374 Y45.004 E3.42906
G1 X111.372 Y48.755 E3.55382
G1 X110.904 Y52.338 E3.674
G1 X109.109 Y56.657 E3.82956
G1 X106.266 Y60.367 E3.98502
G1 X102.552 Y63.213 E4.14065
G1 X98.209 Y65.018 E4.29708
G1 X95.281 Y65.392 E4.39525
G1 X94.977 Y66.477 E4.43273
G1 X94.014 Y68.301 E4.50133
G1 X91.467 Y70.845 E4.62107
G1 X89.72 Y71.992 E4.69058
G1 X86.182 Y72.98 E4.81275
G1 X83.899 Y73.141 E4.88887
G1 X80.26 Y72.075 E5.01499
G1 X78.443 Y71.095 E5.08366
G1 X75.845 Y68.497 E5.20586
G1 X74.737 Y66.787 E5.27363
G1 X74.37 Y65.543 E5.31677
G1 X40.719 Y65.484 E6.43601
G1 X37.147 Y65.016 E6.55583
G1 X32.815 Y63.216 E6.71185
G1 X29.092 Y60.362 E6.86788
G1 X26.258 Y56.665 E7.02281
G1 X24.458 Y52.332 E7.17887
G1 X23.988 Y48.732 E7.29962
G1 X23.99 Y44.981 E7.42438
G1 X24.458 Y41.405 E7.54433
G1 X26.257 Y37.076 E7.70025
G1 X29.1 Y33.366 E7.85571
G0 F9000 X29.385 Y33.651
G1 F1800 X33.01 Y30.873 E8.00761
G1 X37.257 Y29.108 E8.16058
G1 X40.797 Y28.647 E8.27932
G1 X43.799 Y28.621 E8.37917
G1 X44.661 Y25.651 E8.48203
G1 X45.507 Y24.032 E8.54278
G1 X48.021 Y21.378 E8.66437
G1 X49.709 Y20.204 E8.73276
G1 X53.402 Y19.174 E8.86028
G1 X55.494 Y19.02 E8.93004
G1 X58.464 Y19.852 E9.03263
G1 X60.727 Y19.22 E9.11078
G1 X62.826 Y19.066 E9.18078
G1 X63.787 Y19.335 E9.21397
G1 X64.27 Y19.198 E9.23067
G1 X66.399 Y19.043 E9.30167
G1 X68.742 Y19.702 E9.38262
G1 X70.538 Y19.197 E9.44467
G1 X72.638 Y19.043 E9.5147
G1 X76.187 Y20.041 E9.63732
G1 X79.113 Y19.221 E9.73839
G1 X81.207 Y19.067 E9.80823
G1 X84.932 Y20.115 E9.93693
G1 X86.759 Y21.067 E10.00545
G1 X89.345 Y23.783 E10.13018
G1 X90.343 Y25.357 E10.19217
G1 X91.294 Y28.615 E10.30505
G1 X94.445 Y28.641 E10.40986
G1 X98.149 Y29.119 E10.53408
G1 X102.334 Y30.855 E10.68477
G1 X105.963 Y33.636 E10.83684
G1 X108.771 Y37.3 E10.99038
G1 X110.509 Y41.485 E11.1411
G1 X110.977 Y45.056 E11.26088
G1 X110.975 Y48.703 E11.38218
G1 X110.513 Y52.237 E11.50072
G1 X108.76 Y56.456 E11.65268
G1 X105.981 Y60.082 E11.80463
G1 X102.351 Y62.864 E11.95674
G1 X98.108 Y64.627 E12.10956
G1 X94.967 Y65.029 E12.21488
G1 X94.604 Y66.326 E12.25968
G1 X93.688 Y68.061 E12.32493
G1 X91.21 Y70.536 E12.44142
G1 X89.554 Y71.623 E12.50731
G1 X86.114 Y72.584 E12.6261
G1 X83.943 Y72.737 E12.69849
G1 X80.413 Y71.703 E12.82083
G1 X78.685 Y70.771 E12.88613
G1 X76.159 Y68.245 E13.00495
G1 X75.104 Y66.617 E13.06947
G1 X74.669 Y65.143 E13.12058
G1 X40.771 Y65.087 E14.24804
G1 X37.25 Y64.626 E14.36615
G1 X33.018 Y62.867 E14.51858
G1 X29.377 Y60.077 E14.67114
G1 X26.607 Y56.462 E14.82262
G1 X24.848 Y52.23 E14.97505
G1 X24.385 Y48.68 E15.09412
G1 X24.387 Y45.033 E15.21542
G1 X24.848 Y41.508 E15.33366
G1 X26.607 Y37.276 E15.48609
G1 X29.385 Y33.651 E15.63799
G0 F9000 X29.668 Y33.938
G1 F1800 X33.214 Y31.221 E15.78658
G1 X37.358 Y29.499 E15.93583
G1 X40.849 Y29.044 E16.05292
G1 X44.1 Y29.019 E16.16106
G1 X45.033 Y25.804 E16.2724
G1 X45.837 Y24.265 E16.33015
G1 X48.284 Y21.682 E16.44849
G1 X49.881 Y20.571 E16.5132
G1 X53.469 Y19.57 E16.63709
G1 X55.454 Y19.424 E16.70329
G1 X58.464 Y20.267 E16.80726
G1 X60.795 Y19.616 E16.88775
G1 X62.786 Y19.47 E16.95415
G1 X63.788 Y19.75 E16.98876
G1 X64.34 Y19.594 E17.00783
G1 X66.359 Y19.447 E17.07516
G1 X68.742 Y20.117 E17.1575
G1 X70.607 Y19.593 E17.22193
G1 X72.598 Y19.447 E17.28833
G1 X76.187 Y20.456 E17.41233
G1 X79.181 Y19.617 E17.51574
G1 X81.167 Y19.471 E17.58198
G1 X84.782 Y20.488 E17.70688
G1 X86.515 Y21.391 E17.77187
G1 X89.029 Y24.032 E17.89315
G1 X89.975 Y25.524 E17.95191
G1 X90.926 Y28.784 E18.06485
G1 X90.953 Y29.013 E18.07252
G1 X94.394 Y29.038 E18.18697
G1 X98.048 Y29.51 E18.30952
G1 X102.13 Y31.203 E18.4565
G1 X105.68 Y33.923 E18.60525
G1 X108.422 Y37.501 E18.75518
G1 X110.118 Y41.586 E18.90229
G1 X110.58 Y45.108 E19.02043
G1 X110.578 Y48.651 E19.13828
G1 X110.123 Y52.134 E19.2551
G1 X108.411 Y56.253 E19.40347
G1 X105.694 Y59.799 E19.55205
G1 X102.15 Y62.515 E19.70055
G1 X98.007 Y64.236 E19.84977
G1 X94.654 Y64.666 E19.9622
G1 X94.231 Y66.175 E20.01433
G1 X93.362 Y67.821 E20.07623
G1 X90.955 Y70.225 E20.18938
G1 X89.386 Y71.255 E20.25181
G1 X86.046 Y72.188 E20.36715
G1 X83.987 Y72.333 E20.4358
G1 X80.566 Y71.331 E20.55436
G1 X78.927 Y70.447 E20.6163
G1 X76.471 Y67.991 E20.73182
G1 X75.472 Y66.449 E20.79293
G1 X74.969 Y64.743 E20.85209
G1 X40.823 Y64.69 E21.98779
G1 X37.351 Y64.235 E22.10426
G1 X33.219 Y62.518 E22.25308
G1 X29.662 Y59.792 E22.40213
G1 X26.956 Y56.261 E22.5501
G1 X25.239 Y52.129 E22.69892
G1 X24.782 Y48.628 E22.81635
G1 X24.784 Y45.085 E22.93419
G1 X25.239 Y41.609 E23.05079
G1 X26.956 Y37.477 E23.19962
G1 X29.668 Y33.938 E23.34791
G0 F9000 X29.953 Y34.223
G1 F1800 X33.415 Y31.57 E23.49298
G1 X37.459 Y29.89 E23.63863
G1 X40.901 Y29.441 E23.75408
G1 X44.401 Y29.417 E23.87049
G1 X45.406 Y25.952 E23.99049
G1 X46.165 Y24.5 E24.04498
G1 X48.545 Y21.988 E24.16008
G1 X50.055 Y20.937 E24.22127
G1 X53.536 Y19.966 E24.34146
G1 X55.414 Y19.828 E24.4041
G1 X58.464 Y20.682 E24.50944
G1 X60.863 Y20.012 E24.59229
G1 X62.746 Y19.874 E24.65508
G1 X63.788 Y20.165 E24.69107
G1 X64.409 Y19.99 E24.71252
G1 X66.319 Y19.851 E24.77622
G1 X68.742 Y20.532 E24.85993
G1 X70.675 Y19.989 E24.92671
G1 X72.558 Y19.851 E24.98951
G1 X75.993 Y20.817 E25.10819
G1 X76.146 Y20.883 E25.11373
G1 X79.249 Y20.013 E25.22092
G1 X81.127 Y19.875 E25.28355
G1 X84.632 Y20.861 E25.40465
G1 X86.271 Y21.715 E25.46612
G1 X88.713 Y24.281 E25.58394
G1 X89.607 Y25.691 E25.63946
G1 X90.542 Y28.896 E25.75051
G1 X90.583 Y29.411 E25.76769
G1 X94.343 Y29.435 E25.89275
G1 X97.947 Y29.901 E26.01362
G1 X101.929 Y31.552 E26.15699
G1 X105.395 Y34.208 E26.30223
G1 X108.073 Y37.702 E26.44865
G1 X109.727 Y41.687 E26.59215
G1 X110.183 Y45.16 E26.70865
G1 X110.181 Y48.599 E26.82304
G1 X109.732 Y52.033 E26.93822
G1 X108.062 Y56.052 E27.08298
G1 X105.409 Y59.514 E27.22805
G1 X101.95 Y62.165 E27.37299
G1 X97.905 Y63.846 E27.51869
G1 X94.341 Y64.303 E27.6382
G1 X93.858 Y66.024 E27.69765
G1 X93.036 Y67.581 E27.75621
G1 X90.7 Y69.914 E27.86602
G1 X89.218 Y70.887 E27.92498
G1 X85.978 Y71.792 E28.03687
G1 X84.031 Y71.929 E28.10179
G1 X80.718 Y70.958 E28.21661
G1 X79.169 Y70.123 E28.27514
G1 X76.785 Y67.739 E28.38728
G1 X75.839 Y66.279 E28.44514
G1 X75.268 Y64.343 E28.51227
G1 X40.875 Y64.293 E29.65619
G1 X37.454 Y63.845 E29.77095
G1 X33.419 Y62.168 E29.91628
G1 X29.947 Y59.507 E30.06177
G1 X27.305 Y56.06 E30.20622
G1 X25.63 Y52.028 E30.35144
G1 X25.179 Y48.576 E30.46723
G1 X25.181 Y45.137 E30.58161
G1 X25.629 Y41.712 E30.6965
G1 X27.306 Y37.677 E30.84183
G1 X29.953 Y34.223 E30.98657
G0 F9000 X30.238 Y34.508
G1 F1800 X33.615 Y31.92 E31.12808
G1 X37.561 Y30.28 E31.27021
G1 X40.953 Y29.838 E31.38398
G1 X44.84 Y29.814 E31.51326
G1 X44.813 Y29.431 E31.52603
G1 X45.778 Y26.105 E31.64122
G1 X46.495 Y24.733 E31.69271
G1 X48.806 Y22.294 E31.80446
G1 X50.228 Y21.304 E31.86209
G1 X53.604 Y20.362 E31.97866
G1 X55.374 Y20.232 E32.03769
G1 X58.464 Y21.097 E32.14442
G1 X60.931 Y20.408 E32.22961
G1 X62.706 Y20.278 E32.28881
G1 X63.789 Y20.581 E32.32621
G1 X64.479 Y20.386 E32.35006
G1 X66.279 Y20.255 E32.41008
G1 X68.742 Y20.947 E32.49518
G1 X70.743 Y20.385 E32.56431
G1 X72.518 Y20.255 E32.6235
G1 X75.885 Y21.202 E32.73983
G1 X76.109 Y21.309 E32.74809
G1 X79.317 Y20.409 E32.85891
G1 X81.087 Y20.279 E32.91794
G1 X84.482 Y21.234 E33.03524
G1 X86.027 Y22.039 E33.09318
G1 X88.397 Y24.53 E33.20754
G1 X89.239 Y25.858 E33.25984
G1 X90.146 Y28.967 E33.36755
G1 X90.214 Y29.809 E33.39565
G1 X94.292 Y29.832 E33.53129
G1 X97.842 Y30.291 E33.65034
G1 X101.728 Y31.902 E33.79026
G1 X105.112 Y34.495 E33.93205
G1 X107.724 Y37.903 E34.07487
G1 X109.336 Y41.788 E34.21477
G1 X109.786 Y45.212 E34.32963
G1 X109.784 Y48.547 E34.44055
G1 X109.341 Y51.932 E34.5541
G1 X107.713 Y55.851 E34.69524
G1 X105.124 Y59.229 E34.8368
G1 X101.75 Y61.815 E34.97819
G1 X97.802 Y63.456 E35.12039
G1 X94.317 Y63.904 E35.23726
G1 X94.036 Y63.908 E35.2466
G1 X93.485 Y65.873 E35.31448
G1 X92.71 Y67.341 E35.36969
G1 X90.443 Y69.605 E35.47625
G1 X89.052 Y70.518 E35.53159
G1 X85.91 Y71.396 E35.6401
G1 X84.075 Y71.525 E35.70128
G1 X80.871 Y70.586 E35.81233
G1 X79.411 Y69.799 E35.8675
G1 X77.099 Y67.487 E35.97625
G1 X76.206 Y66.109 E36.03086
G1 X75.568 Y63.943 E36.10596
G1 X40.927 Y63.896 E37.25813
G1 X37.555 Y63.454 E37.37124
G1 X33.62 Y61.819 E37.51297
G1 X30.234 Y59.224 E37.65486
G1 X27.654 Y55.857 E37.79594
G1 X26.02 Y51.926 E37.93753
G1 X25.576 Y48.524 E38.05164
G1 X25.578 Y45.189 E38.16256
G1 X26.02 Y41.813 E38.27581
G1 X27.655 Y37.878 E38.41754
G1 X30.238 Y34.508 E38.55876
G0 F9000 X30.523 Y34.793
G1 F1800 X33.816 Y32.269 E38.69676
G1 X37.662 Y30.671 E38.83528
G1 X41.005 Y30.235 E38.94741
G1 X45.268 Y30.212 E39.0892
G1 X45.217 Y29.473 E39.11384
G1 X46.15 Y26.258 E39.22518
G1 X46.825 Y24.966 E39.27366
G1 X49.067 Y22.6 E39.38207
G1 X50.402 Y21.67 E39.43619
G1 X53.671 Y20.758 E39.54907
G1 X55.334 Y20.636 E39.60453
G1 X58.464 Y21.512 E39.71263
G1 X60.999 Y20.804 E39.80017
G1 X62.666 Y20.682 E39.85577
G1 X63.79 Y20.996 E39.89458
G1 X64.549 Y20.782 E39.92081
G1 X66.239 Y20.659 E39.97717
G1 X68.742 Y21.362 E40.06364
G1 X70.811 Y20.781 E40.13512
G1 X72.478 Y20.659 E40.19071
G1 X75.777 Y21.587 E40.30469
G1 X76.103 Y21.757 E40.31692
G1 X76.274 Y21.672 E40.32327
G1 X79.384 Y20.805 E40.43066
G1 X81.047 Y20.683 E40.48612
G1 X84.332 Y21.607 E40.59962
G1 X85.783 Y22.363 E40.65404
G1 X88.081 Y24.779 E40.76494
G1 X88.871 Y26.025 E40.81401
G1 X89.75 Y29.039 E40.91843
G1 X89.845 Y30.207 E40.9574
G1 X94.241 Y30.229 E41.10362
G1 X97.737 Y30.681 E41.22086
G1 X101.53 Y32.253 E41.35742
G1 X104.827 Y34.78 E41.49559
G1 X107.375 Y38.104 E41.63489
G1 X108.945 Y41.889 E41.77118
G1 X109.389 Y45.264 E41.8844
G1 X109.387 Y48.495 E41.99186
G1 X108.95 Y51.831 E42.10377
G1 X107.364 Y55.65 E42.2413
G1 X104.839 Y58.944 E42.37935
G1 X101.549 Y61.466 E42.51723
G1 X97.701 Y63.065 E42.65582
G1 X94.311 Y63.504 E42.76951
G1 X93.732 Y63.513 E42.78877
G1 X93.112 Y65.722 E42.86508
G1 X92.384 Y67.101 E42.91695
G1 X90.188 Y69.294 E43.02017
G1 X88.884 Y70.15 E43.07205
G1 X85.842 Y71 E43.17711
G1 X84.119 Y71.121 E43.23455
G1 X81.024 Y70.214 E43.34182
G1 X79.653 Y69.475 E43.39363
G1 X77.411 Y67.233 E43.49908
G1 X76.574 Y65.941 E43.55028
G1 X75.868 Y63.543 E43.63343
G1 X40.979 Y63.499 E44.79384
G1 X37.658 Y63.064 E44.90524
G1 X33.82 Y61.469 E45.04348
G1 X30.519 Y58.939 E45.18181
G1 X28.003 Y55.656 E45.31938
G1 X26.411 Y51.825 E45.45736
G1 X25.973 Y48.472 E45.56983
G1 X25.975 Y45.241 E45.67729
G1 X26.41 Y41.916 E45.78883
G1 X28.005 Y38.078 E45.92706
G1 X30.523 Y34.793 E46.06473
G0 F9000 X30.808 Y35.078
G1 F1800 X34.017 Y32.618 E46.19921
G1 X37.763 Y31.062 E46.33413
G1 X41.057 Y30.632 E46.44462
G1 X45.697 Y30.61 E46.59894
G1 X45.621 Y29.516 E46.63542
G1 X46.522 Y26.411 E46.74295
G1 X47.155 Y25.199 E46.78843
G1 X49.328 Y22.906 E46.8935
G1 X50.576 Y22.036 E46.9441
G1 X53.738 Y21.154 E47.05328
G1 X55.294 Y21.04 E47.10517
G1 X58.464 Y21.927 E47.21466
G1 X61.067 Y21.2 E47.30455
G1 X62.626 Y21.086 E47.35654
G1 X63.791 Y21.412 E47.39678
G1 X64.619 Y21.178 E47.42539
G1 X66.199 Y21.063 E47.47808
G1 X68.742 Y21.777 E47.56594
G1 X70.879 Y21.177 E47.63976
G1 X72.438 Y21.063 E47.69175
G1 X75.627 Y21.96 E47.80193
G1 X76.116 Y22.215 E47.82028
G1 X76.381 Y22.057 E47.83054
G1 X79.451 Y21.201 E47.93654
G1 X81.007 Y21.087 E47.98843
G1 X84.182 Y21.98 E48.09813
G1 X85.539 Y22.687 E48.14902
G1 X87.765 Y25.028 E48.25647
G1 X88.503 Y26.192 E48.30231
G1 X89.354 Y29.11 E48.4034
G1 X89.476 Y30.605 E48.45329
G1 X94.19 Y30.626 E48.61008
G1 X97.632 Y31.071 E48.72552
G1 X101.329 Y32.603 E48.85862
G1 X104.542 Y35.065 E48.99325
G1 X107.027 Y38.308 E49.12914
G1 X108.554 Y41.99 E49.26172
G1 X108.992 Y45.316 E49.37329
G1 X108.99 Y48.443 E49.4773
G1 X108.559 Y51.73 E49.58756
G1 X107.016 Y55.446 E49.72139
G1 X104.554 Y58.659 E49.85602
G1 X101.345 Y61.118 E49.99048
G1 X97.6 Y62.674 E50.12536
G1 X94.305 Y63.104 E50.23589
G1 X93.428 Y63.117 E50.26506
G1 X92.739 Y65.571 E50.34983
G1 X92.058 Y66.861 E50.39835
G1 X89.933 Y68.983 E50.49823
G1 X88.716 Y69.782 E50.54666
G1 X85.774 Y70.604 E50.64826
G1 X84.163 Y70.717 E50.70197
G1 X81.177 Y69.842 E50.80546
G1 X79.895 Y69.151 E50.8539
G1 X77.725 Y66.981 E50.95597
G1 X76.941 Y65.771 E51.00392
G1 X76.168 Y63.143 E51.09503
G1 X41.031 Y63.102 E52.2637
G1 X37.761 Y62.674 E52.37338
G1 X34.02 Y61.119 E52.50813
G1 X30.806 Y58.656 E52.64281
G1 X28.351 Y55.452 E52.77706
G1 X26.802 Y51.724 E52.91133
G1 X26.37 Y48.42 E53.02216
G1 X26.372 Y45.293 E53.12616
G1 X26.801 Y42.017 E53.23605
G1 X28.354 Y38.279 E53.37068
G1 X30.808 Y35.078 E53.50484
G0 F9000 X31.093 Y35.363
G1 F1800 X34.22 Y32.967 E53.63586
G1 X37.865 Y31.452 E53.76715
G1 X41.109 Y31.029 E53.87596
G1 X46.126 Y31.008 E54.04283
G1 X46.025 Y29.558 E54.09117
G1 X46.895 Y26.559 E54.19503
G1 X47.483 Y25.434 E54.23725
G1 X49.589 Y23.212 E54.33907
G1 X50.749 Y22.403 E54.38611
G1 X53.806 Y21.55 E54.49167
G1 X55.254 Y21.444 E54.53996
G1 X58.252 Y22.283 E54.64351
G1 X58.416 Y22.356 E54.64948
G1 X61.135 Y21.596 E54.74338
G1 X62.586 Y21.49 E54.79177
G1 X63.792 Y21.827 E54.83342
G1 X64.689 Y21.574 E54.86441
G1 X66.159 Y21.467 E54.91344
G1 X68.742 Y22.192 E55.00267
G1 X70.947 Y21.573 E55.07884
G1 X72.398 Y21.467 E55.12723
G1 X75.477 Y22.333 E55.23361
G1 X76.147 Y22.682 E55.25874
G1 X76.488 Y22.442 E55.27261
G1 X79.518 Y21.597 E55.37723
G1 X80.967 Y21.491 E55.42555
G1 X84.032 Y22.353 E55.53145
G1 X85.295 Y23.011 E55.57882
G1 X87.449 Y25.277 E55.6828
G1 X88.135 Y26.359 E55.72541
G1 X88.958 Y29.181 E55.82318
G1 X89.078 Y30.649 E55.87217
G1 X88.978 Y31.003 E55.88441
G1 X94.139 Y31.023 E56.05606
G1 X97.527 Y31.461 E56.16969
G1 X101.131 Y32.954 E56.29943
G1 X104.257 Y35.35 E56.43043
G1 X106.676 Y38.506 E56.56269
G1 X108.164 Y42.095 E56.69191
G1 X108.595 Y45.368 E56.80171
G1 X108.593 Y48.391 E56.90226
G1 X108.168 Y51.629 E57.01088
G1 X106.667 Y55.245 E57.1411
G1 X104.269 Y58.374 E57.27222
G1 X101.145 Y60.768 E57.40312
G1 X97.498 Y62.284 E57.53448
G1 X94.253 Y62.707 E57.64333
G1 X93.124 Y62.721 E57.68088
G1 X92.366 Y65.42 E57.77412
G1 X91.732 Y66.621 E57.81929
G1 X89.678 Y68.672 E57.91583
G1 X88.548 Y69.414 E57.9608
G1 X85.706 Y70.208 E58.05894
G1 X84.207 Y70.313 E58.10892
G1 X81.33 Y69.47 E58.20863
G1 X80.137 Y68.827 E58.25371
G1 X78.039 Y66.729 E58.35239
G1 X77.308 Y65.601 E58.3971
