;FLAVOR:Marlin
;TIME:10181
;Filament used: 10.6331m
;Layer height: 0.2
;MINX:13.6
;MINY:42.447
;MINZ:0.2
;MAXX:80.936
;MAXY:141.412
;MAXZ:32.6
;TARGET_MACHINE.NAME:Creality Ender-3 V3 SE
;Generated with Cura_SteamEngine 5.8.1
M82 ;absolute extrusion mode
M220 S100 ;Reset Feedrate
M221 S100 ;Reset Flowrate

G28 ;Home

M420 S1; Use saved mesh leveling data

G92 E0 ;Reset Extruder
G1 Z2.0 F3000 ;Move Z Axis up
G1 X-3 Y20 Z0.28 F5000.0 ;Move to start position
M190 S65 ; Set bed temperature and wait
M109 S205.0 ; Set hotend temperature and wait
G1 X-3 Y100.0 Z0.28 F1500.0 E15 ;Draw the first line
G1 X-2 Y100.0 Z0.28 F5000.0 ;Move to side a little
G1 X-2 Y20 Z0.28 F1500.0 E30 ;Draw the second line
G92 E0 ;Reset Extruder
G1 E-1.0000 F1800 ;Retract a bit
G1 Z2.0 F3000 ;Move Z Axis up
G1 E0.0000 F1800 

G92 E0
G92 E0
G1 F2400 E-0.8
;LAYER_COUNT:162
;LAYER:0
M107
G1 F300 Z0.4
G0 F9000 X20.279 Y42.804 Z0.4
;TYPE:SKIRT
G1 F300 Z0.2
G1 F2400 E0
G1 F1800 X21.997 Y42.522 E0.05791
G1 X69.829 Y42.447 E1.64881
G1 X71.725 Y42.913 E1.71374
G1 X73.753 Y43.966 E1.78975
G1 X75.212 Y45.527 E1.86081
G1 X76.419 Y47.55 E1.93916
G1 X76.701 Y49.268 E1.99707
G1 X76.776 Y86.8 E3.24539
G1 X76.519 Y87.845 E3.28118
G1 X77.335 Y88.29 E3.3121
G1 X78.607 Y89.713 E3.37558
G1 X79.157 Y90.25 E3.40115
G1 X80.159 Y92.046 E3.46955
G1 X80.719 Y93.875 E3.53317
G1 X80.921 Y95.842 E3.59894
G1 X80.773 Y96.584 E3.6241
G1 X80.936 Y98.56 E3.69005
G1 X80.825 Y98.92 E3.70258
G1 X80.891 Y99.811 E3.73229
G1 X80.859 Y100.533 E3.75633
G1 X80.133 Y102.873 E3.83782
G1 X79.002 Y104.821 E3.91274
G1 X77.101 Y106.411 E3.99517
G1 X75.906 Y107.192 E4.04265
G1 X76.655 Y108.37 E4.08908
G1 X77.972 Y112.862 E4.24477
G1 X77.974 Y115.214 E4.323
G1 X76.778 Y119.5 E4.471
G1 X76.709 Y119.649 E4.47646
G1 X77.317 Y119.98 E4.49948
G1 X78.675 Y121.488 E4.56698
G1 X78.807 Y121.665 E4.57432
G1 X79.115 Y122.035 E4.59033
G1 X80.056 Y123.403 E4.64556
G1 X80.719 Y125.53 E4.71966
G1 X80.921 Y127.556 E4.78738
G1 X80.774 Y128.29 E4.81228
G1 X80.936 Y130.26 E4.87802
G1 X80.825 Y130.62 E4.89055
G1 X80.891 Y131.511 E4.92027
G1 X80.859 Y132.232 E4.94427
G1 X80.133 Y134.572 E5.02576
G1 X79.022 Y136.484 E5.09931
G1 X77.618 Y137.715 E5.16141
G1 X77.437 Y137.998 E5.17259
G1 X75.902 Y139.531 E5.24474
G1 X74.174 Y140.654 E5.31329
G1 X71.815 Y141.312 E5.39474
G1 X69.576 Y141.412 E5.46929
G1 X67.312 Y140.742 E5.54782
G1 X65.486 Y139.764 E5.61671
G1 X64.608 Y138.886 E5.65801
G1 X26.182 Y138.882 E6.93606
G1 X25.872 Y139.076 E6.94823
G1 X23.541 Y139.656 E7.02812
G1 X21.338 Y139.716 E7.10142
G1 X18.952 Y138.935 E7.18492
G1 X17.532 Y138.275 E7.237
G1 X15.792 Y136.695 E7.31517
G1 X14.527 Y134.91 E7.38794
G1 X13.814 Y132.691 E7.46546
G1 X13.611 Y130.12 E7.55124
G1 X13.728 Y129.755 E7.56399
G1 X13.6 Y128.283 E7.61313
G1 X13.738 Y127.86 E7.62793
G1 X13.717 Y127.328 E7.64564
G1 X13.721 Y127.242 E7.6485
G1 X13.658 Y126.412 E7.67619
G1 X13.694 Y125.666 E7.70103
G1 X14.415 Y123.423 E7.77939
G1 X15.437 Y121.644 E7.84763
G1 X17.072 Y120.093 E7.92258
G1 X18.763 Y119.025 E7.98911
G1 X20.663 Y118.487 E8.05478
G1 X19.896 Y117.297 E8.10187
G1 X18.648 Y113.04 E8.24942
G1 X18.485 Y110.678 E8.32817
G1 X19.447 Y107.4 E8.44179
G1 X18.952 Y107.235 E8.45915
G1 X17.532 Y106.575 E8.51123
G1 X15.792 Y104.995 E8.5894
G1 X14.527 Y103.21 E8.66217
G1 X13.814 Y100.991 E8.73969
G1 X13.611 Y98.42 E8.82547
G1 X13.728 Y98.055 E8.83821
G1 X13.6 Y96.583 E8.88736
G1 X13.738 Y96.16 E8.90216
G1 X13.717 Y95.628 E8.91986
G1 X13.721 Y95.542 E8.92273
G1 X13.658 Y94.712 E8.95041
G1 X13.694 Y93.966 E8.97525
G1 X14.415 Y91.723 E9.05362
G1 X15.421 Y89.966 E9.12096
G1 X15.992 Y89.42 E9.14723
G1 X15.533 Y88.657 E9.17685
G1 X15.251 Y86.923 E9.23528
G1 X15.176 Y49.394 E10.4835
G1 X15.642 Y47.498 E10.54844
G1 X16.695 Y45.47 E10.62444
G1 X18.256 Y44.011 E10.69551
G1 X20.279 Y42.804 E10.77386
G0 F9000 X20.419 Y43.187
G1 F1800 X22.062 Y42.917 E10.82924
G1 X69.783 Y42.847 E12.41645
G1 X71.582 Y43.289 E12.47806
G1 X73.508 Y44.289 E12.55024
G1 X74.888 Y45.766 E12.61747
G1 X76.036 Y47.69 E12.69199
G1 X76.306 Y49.333 E12.74737
G1 X76.376 Y86.754 E13.992
G1 X76.058 Y88.049 E14.03635
G1 X77.082 Y88.607 E14.07514
G1 X78.319 Y89.991 E14.13687
G1 X78.837 Y90.497 E14.16096
G1 X79.79 Y92.205 E14.22601
G1 X80.325 Y93.952 E14.28678
G1 X80.517 Y95.824 E14.34937
G1 X80.369 Y96.562 E14.37441
G1 X80.531 Y98.517 E14.43965
G1 X80.42 Y98.876 E14.45215
G1 X80.491 Y99.793 E14.48274
G1 X80.461 Y100.466 E14.50515
G1 X79.765 Y102.71 E14.58329
G1 X78.692 Y104.559 E14.65439
G1 X76.882 Y106.076 E14.73294
G1 X75.665 Y106.871 E14.78129
G1 X75.293 Y106.975 E14.79414
G1 X76.287 Y108.538 E14.85575
G1 X77.572 Y112.921 E15.00766
G1 X77.574 Y115.16 E15.08213
G1 X76.393 Y119.392 E15.22827
G1 X76.171 Y119.811 E15.24404
G1 X77.065 Y120.298 E15.2779
G1 X78.354 Y121.727 E15.3419
G1 X78.495 Y121.916 E15.34975
G1 X78.785 Y122.262 E15.36476
G1 X79.692 Y123.581 E15.418
G1 X80.325 Y125.611 E15.48873
G1 X80.517 Y127.537 E15.55311
G1 X80.371 Y128.269 E15.57793
G1 X80.531 Y130.217 E15.64294
G1 X80.42 Y130.576 E15.65544
G1 X80.491 Y131.493 E15.68603
G1 X80.461 Y132.165 E15.7084
G1 X79.765 Y134.409 E15.78655
G1 X78.709 Y136.226 E15.85644
G1 X77.313 Y137.45 E15.9182
G1 X77.125 Y137.744 E15.9298
G1 X75.647 Y139.22 E15.99928
G1 X74.008 Y140.285 E16.06429
G1 X71.754 Y140.914 E16.14212
G1 X69.625 Y141.009 E16.213
G1 X67.465 Y140.37 E16.28792
G1 X65.727 Y139.439 E16.3535
G1 X64.774 Y138.486 E16.39832
G1 X26.066 Y138.482 E17.68576
G1 X25.712 Y138.704 E17.69965
G1 X23.488 Y139.257 E17.77588
G1 X21.395 Y139.314 E17.84552
G1 X19.121 Y138.572 E17.92508
G1 X17.755 Y137.937 E17.97518
G1 X16.092 Y136.427 E18.04989
G1 X14.89 Y134.731 E18.11903
G1 X14.209 Y132.614 E18.19299
G1 X14.016 Y130.167 E18.27463
G1 X14.133 Y129.802 E18.28738
G1 X14.005 Y128.33 E18.33653
G1 X14.141 Y127.914 E18.35108
G1 X14.117 Y127.346 E18.36999
G1 X14.122 Y127.236 E18.37365
G1 X14.058 Y126.431 E18.40051
G1 X14.091 Y125.738 E18.42359
G1 X14.784 Y123.584 E18.49885
G1 X15.755 Y121.893 E18.5637
G1 X17.317 Y120.411 E18.63532
G1 X18.927 Y119.394 E18.69865
G1 X21.094 Y118.781 E18.77356
G1 X21.313 Y118.758 E18.78088
G1 X20.264 Y117.13 E18.8453
G1 X19.044 Y112.968 E18.98955
G1 X18.889 Y110.723 E19.0644
G1 X19.94 Y107.141 E19.18856
G1 X19.121 Y106.872 E19.21723
G1 X17.755 Y106.237 E19.26733
G1 X16.092 Y104.727 E19.34204
G1 X14.89 Y103.031 E19.41118
G1 X14.209 Y100.914 E19.48515
G1 X14.016 Y98.467 E19.56679
G1 X14.133 Y98.102 E19.57954
G1 X14.005 Y96.63 E19.62868
G1 X14.141 Y96.214 E19.64324
G1 X14.117 Y95.646 E19.66214
G1 X14.122 Y95.536 E19.66581
G1 X14.058 Y94.731 E19.69267
G1 X14.091 Y94.038 E19.71574
G1 X14.784 Y91.884 E19.791
G1 X15.74 Y90.214 E19.855
G1 X16.5 Y89.487 E19.88998
G1 X15.916 Y88.517 E19.92764
G1 X15.646 Y86.859 E19.98351
G1 X15.576 Y49.44 E21.22808
G1 X16.018 Y47.641 E21.28969
G1 X17.018 Y45.715 E21.36187
G1 X18.495 Y44.335 E21.4291
G1 X20.419 Y43.187 E21.50362
G0 F9000 X20.557 Y43.57
G1 F1800 X22.127 Y43.312 E21.55654
G1 X69.736 Y43.247 E23.14002
G1 X71.44 Y43.666 E23.19838
G1 X73.263 Y44.612 E23.26669
G1 X74.567 Y46.008 E23.33023
G1 X75.653 Y47.828 E23.40072
G1 X75.911 Y49.398 E23.45364
G1 X75.976 Y86.707 E24.69454
G1 X75.596 Y88.252 E24.74746
G1 X76.829 Y88.924 E24.79417
G1 X78.031 Y90.269 E24.85416
G1 X78.517 Y90.744 E24.87677
G1 X79.421 Y92.364 E24.93847
G1 X79.931 Y94.029 E24.99639
G1 X80.113 Y95.806 E25.0558
G1 X79.966 Y96.541 E25.08073
G1 X80.126 Y98.474 E25.14524
G1 X80.015 Y98.833 E25.15774
G1 X80.091 Y99.775 E25.18917
G1 X80.063 Y100.398 E25.20991
G1 X79.396 Y102.548 E25.28479
G1 X78.38 Y104.299 E25.35212
G1 X76.663 Y105.741 E25.42669
G1 X75.496 Y106.503 E25.47305
G1 X74.535 Y106.771 E25.50623
G1 X75.002 Y107.264 E25.52882
G1 X75.919 Y108.706 E25.58566
G1 X77.172 Y112.98 E25.73379
G1 X77.174 Y115.106 E25.8045
G1 X76.02 Y119.241 E25.94729
G1 X75.633 Y119.973 E25.97483
G1 X76.813 Y120.616 E26.01953
G1 X78.033 Y121.966 E26.08005
G1 X78.183 Y122.167 E26.08839
G1 X78.478 Y122.519 E26.10366
G1 X79.328 Y123.757 E26.15361
G1 X79.931 Y125.692 E26.22102
G1 X80.113 Y127.518 E26.28205
G1 X79.967 Y128.247 E26.30678
G1 X80.126 Y130.174 E26.37109
G1 X80.015 Y130.533 E26.38359
G1 X80.091 Y131.475 E26.41502
G1 X80.063 Y132.098 E26.43577
G1 X79.397 Y134.246 E26.51056
G1 X78.396 Y135.968 E26.57681
G1 X77.001 Y137.191 E26.63852
G1 X76.842 Y137.461 E26.64894
G1 X75.392 Y138.909 E26.71709
G1 X73.841 Y139.917 E26.77862
G1 X71.694 Y140.516 E26.85275
G1 X69.675 Y140.606 E26.91997
G1 X67.617 Y139.997 E26.99136
G1 X65.968 Y139.114 E27.05357
G1 X64.94 Y138.086 E27.10192
G1 X25.952 Y138.082 E28.39867
G1 X25.554 Y138.331 E28.41429
G1 X23.435 Y138.858 E28.48691
G1 X21.452 Y138.912 E28.55289
G1 X19.29 Y138.209 E28.6285
G1 X17.978 Y137.599 E28.67663
G1 X16.392 Y136.159 E28.74788
G1 X15.253 Y134.552 E28.81339
G1 X14.604 Y132.535 E28.88386
G1 X14.421 Y130.214 E28.9613
G1 X14.538 Y129.849 E28.97405
G1 X14.41 Y128.377 E29.02319
G1 X14.544 Y127.967 E29.03754
G1 X14.517 Y127.364 E29.05761
G1 X14.523 Y127.229 E29.06211
G1 X14.458 Y126.45 E29.08811
G1 X14.489 Y125.809 E29.10945
G1 X15.152 Y123.746 E29.18153
G1 X16.073 Y122.142 E29.24304
G1 X17.562 Y120.729 E29.31132
G1 X19.091 Y119.763 E29.37147
G1 X21.203 Y119.166 E29.44447
G1 X22.214 Y119.101 E29.47816
G1 X21.629 Y118.516 E29.50568
G1 X20.631 Y116.961 E29.56714
G1 X19.44 Y112.897 E29.70799
G1 X19.293 Y110.768 E29.77897
G1 X20.433 Y106.881 E29.9137
G1 X19.29 Y106.509 E29.95368
G1 X17.978 Y105.899 E30.0018
G1 X16.392 Y104.459 E30.07305
G1 X15.253 Y102.852 E30.13856
G1 X14.604 Y100.835 E30.20904
G1 X14.421 Y98.514 E30.28647
G1 X14.538 Y98.149 E30.29922
G1 X14.41 Y96.677 E30.34836
G1 X14.544 Y96.267 E30.36271
G1 X14.517 Y95.664 E30.38279
G1 X14.523 Y95.529 E30.38728
G1 X14.458 Y94.75 E30.41328
G1 X14.489 Y94.109 E30.43463
G1 X15.152 Y92.046 E30.5067
G1 X16.059 Y90.462 E30.56741
G1 X17.008 Y89.555 E30.61107
G1 X16.299 Y88.377 E30.6568
G1 X16.041 Y86.795 E30.71011
G1 X15.976 Y49.487 E31.95098
G1 X16.395 Y47.783 E32.00934
G1 X17.341 Y45.96 E32.07766
G1 X18.737 Y44.656 E32.14119
G1 X20.557 Y43.57 E32.21168
G0 F9000 X20.695 Y43.953
G1 F1800 X22.192 Y43.707 E32.26214
G1 X69.69 Y43.647 E33.84193
G1 X71.297 Y44.042 E33.89697
G1 X73.018 Y44.935 E33.96146
G1 X74.246 Y46.25 E34.0213
G1 X75.27 Y47.966 E34.08777
G1 X75.516 Y49.463 E34.13823
G1 X75.576 Y86.661 E35.37544
G1 X75.193 Y88.22 E35.42883
G1 X75.095 Y88.434 E35.43666
G1 X76.576 Y89.241 E35.49276
G1 X77.743 Y90.547 E35.55101
G1 X78.197 Y90.991 E35.57213
G1 X79.05 Y92.519 E35.63033
G1 X79.537 Y94.111 E35.68571
G1 X79.709 Y95.788 E35.74178
G1 X79.56 Y96.535 E35.76711
G1 X79.579 Y96.653 E35.77109
G1 X79.721 Y98.431 E35.83041
G1 X79.61 Y98.791 E35.84294
G1 X79.691 Y99.757 E35.87518
G1 X79.665 Y100.331 E35.89429
G1 X79.028 Y102.385 E35.96582
G1 X78.069 Y104.037 E36.02935
G1 X76.444 Y105.406 E36.10002
G1 X75.327 Y106.135 E36.14439
G1 X73.788 Y106.564 E36.19753
G1 X74.684 Y107.511 E36.24089
G1 X75.551 Y108.874 E36.29462
G1 X76.772 Y113.039 E36.43897
G1 X76.774 Y115.052 E36.50593
G1 X75.647 Y119.09 E36.64536
G1 X75.095 Y120.135 E36.68467
G1 X76.562 Y120.935 E36.74025
G1 X77.712 Y122.205 E36.79723
G1 X77.871 Y122.418 E36.80607
G1 X78.171 Y122.776 E36.82161
G1 X78.964 Y123.933 E36.86826
G1 X79.537 Y125.773 E36.93236
G1 X79.709 Y127.499 E36.99005
G1 X79.561 Y128.24 E37.01518
G1 X79.579 Y128.353 E37.01899
G1 X79.721 Y130.131 E37.07831
G1 X79.61 Y130.491 E37.09084
G1 X79.691 Y131.457 E37.12309
G1 X79.665 Y132.031 E37.1422
G1 X79.029 Y134.083 E37.21365
G1 X78.083 Y135.71 E37.27625
G1 X76.689 Y136.932 E37.3379
G1 X76.523 Y137.214 E37.34879
G1 X75.137 Y138.598 E37.41393
G1 X73.674 Y139.549 E37.47197
G1 X71.634 Y140.118 E37.54241
G1 X69.725 Y140.203 E37.60597
G1 X67.769 Y139.624 E37.67381
G1 X66.209 Y138.789 E37.73267
G1 X65.106 Y137.686 E37.78455
G1 X25.837 Y137.682 E39.09064
G1 X25.396 Y137.958 E39.10794
G1 X23.382 Y138.459 E39.17697
G1 X21.511 Y138.51 E39.23922
G1 X19.459 Y137.846 E39.31096
G1 X18.201 Y137.261 E39.3571
G1 X16.692 Y135.891 E39.42489
G1 X15.616 Y134.373 E39.48678
G1 X14.999 Y132.456 E39.55376
G1 X14.826 Y130.261 E39.62699
G1 X14.943 Y129.896 E39.63974
G1 X14.815 Y128.425 E39.68885
G1 X14.948 Y128.02 E39.70303
G1 X14.917 Y127.381 E39.7243
G1 X14.924 Y127.221 E39.72963
G1 X14.857 Y126.417 E39.75646
G1 X14.885 Y125.883 E39.77425
G1 X15.52 Y123.908 E39.84325
G1 X16.391 Y122.391 E39.90143
G1 X17.809 Y121.045 E39.96646
G1 X19.254 Y120.133 E40.02329
G1 X21.272 Y119.562 E40.09305
G1 X23.122 Y119.443 E40.1547
G1 X21.943 Y118.264 E40.21016
G1 X20.999 Y116.793 E40.26829
G1 X19.836 Y112.825 E40.40582
G1 X19.697 Y110.813 E40.4729
G1 X20.927 Y106.62 E40.61824
G1 X19.459 Y106.146 E40.66955
G1 X18.201 Y105.561 E40.71569
G1 X16.692 Y104.191 E40.78348
G1 X15.616 Y102.673 E40.84536
G1 X14.999 Y100.756 E40.91234
G1 X14.826 Y98.561 E40.98558
G1 X14.943 Y98.196 E40.99833
G1 X14.815 Y96.725 E41.04744
G1 X14.948 Y96.32 E41.06161
G1 X14.917 Y95.681 E41.08289
G1 X14.924 Y95.521 E41.08822
G1 X14.857 Y94.717 E41.11505
G1 X14.885 Y94.183 E41.13284
G1 X15.52 Y92.208 E41.20184
G1 X16.378 Y90.71 E41.25926
G1 X17.515 Y89.623 E41.31157
G1 X16.682 Y88.237 E41.36536
G1 X16.436 Y86.731 E41.41611
G1 X16.376 Y49.533 E42.65332
G1 X16.771 Y47.926 E42.70836
G1 X17.664 Y46.205 E42.77285
G1 X18.979 Y44.977 E42.83269
G1 X20.695 Y43.953 E42.89916
G0 F9000 X20.833 Y44.336
G1 F1800 X22.257 Y44.102 E42.94716
G1 X69.644 Y44.047 E44.52325
G1 X71.154 Y44.418 E44.57497
G1 X72.773 Y45.258 E44.63564
G1 X73.925 Y46.492 E44.69178
G1 X74.887 Y48.104 E44.75422
G1 X75.121 Y49.528 E44.80222
G1 X75.176 Y86.615 E46.03574
G1 X74.805 Y88.125 E46.08745
G1 X74.543 Y88.629 E46.10635
G1 X74.742 Y88.697 E46.11334
G1 X76.323 Y89.558 E46.17322
G1 X77.391 Y90.745 E46.22633
G1 X77.444 Y90.815 E46.22925
G1 X77.877 Y91.238 E46.24938
G1 X78.681 Y92.678 E46.30423
G1 X79.143 Y94.188 E46.35676
G1 X79.305 Y95.77 E46.40965
G1 X79.153 Y96.532 E46.43549
G1 X79.18 Y96.685 E46.44066
G1 X79.316 Y98.387 E46.49745
G1 X79.204 Y98.748 E46.51002
G1 X79.292 Y99.791 E46.54483
G1 X79.268 Y100.26 E46.56045
G1 X78.66 Y102.222 E46.62877
G1 X77.758 Y103.776 E46.68853
G1 X76.225 Y105.071 E46.75528
G1 X75.158 Y105.767 E46.79765
G1 X73.208 Y106.311 E46.86498
G1 X73.018 Y106.332 E46.87134
G1 X74.369 Y107.761 E46.93675
G1 X75.182 Y109.039 E46.98713
G1 X76.372 Y113.098 E47.12781
G1 X76.374 Y114.998 E47.19101
G1 X75.274 Y118.939 E47.32709
G1 X74.538 Y120.333 E47.37952
G1 X74.755 Y120.405 E47.38713
G1 X76.311 Y121.254 E47.44608
G1 X77.391 Y122.444 E47.49953
G1 X77.559 Y122.669 E47.50887
G1 X77.864 Y123.033 E47.52467
G1 X78.6 Y124.109 E47.56803
G1 X79.143 Y125.854 E47.62881
G1 X79.305 Y127.48 E47.68316
G1 X79.154 Y128.235 E47.70877
G1 X79.18 Y128.385 E47.71383
G1 X79.316 Y130.087 E47.77062
G1 X79.204 Y130.448 E47.78319
G1 X79.292 Y131.491 E47.81801
G1 X79.268 Y131.96 E47.83363
G1 X78.661 Y133.92 E47.90187
G1 X77.77 Y135.452 E47.96082
G1 X76.503 Y136.563 E48.01686
G1 X76.39 Y136.641 E48.02143
G1 X76.24 Y136.931 E48.03229
G1 X74.882 Y138.287 E48.09612
G1 X73.508 Y139.18 E48.15062
G1 X71.573 Y139.72 E48.21744
G1 X69.774 Y139.8 E48.27733
G1 X67.922 Y139.252 E48.34157
G1 X66.45 Y138.464 E48.3971
G1 X65.272 Y137.286 E48.45251
G1 X25.722 Y137.282 E49.76795
G1 X25.237 Y137.586 E49.78699
G1 X23.33 Y138.06 E49.85235
G1 X21.569 Y138.108 E49.91094
G1 X19.628 Y137.483 E49.97876
G1 X18.424 Y136.923 E50.02293
G1 X16.992 Y135.623 E50.08725
G1 X15.979 Y134.194 E50.14551
G1 X15.394 Y132.377 E50.209
G1 X15.231 Y130.308 E50.27803
G1 X15.348 Y129.943 E50.29078
G1 X15.22 Y128.473 E50.33986
G1 X15.351 Y128.074 E50.35382
G1 X15.317 Y127.362 E50.37753
G1 X15.325 Y127.209 E50.38263
G1 X15.256 Y126.384 E50.41016
G1 X15.281 Y125.957 E50.42439
G1 X15.888 Y124.07 E50.49032
G1 X16.709 Y122.64 E50.54516
G1 X18.054 Y121.363 E50.60685
G1 X19.418 Y120.502 E50.6605
G1 X21.341 Y119.958 E50.72697
G1 X23.093 Y119.846 E50.78536
G1 X24.426 Y120.181 E50.83107
G1 X22.257 Y118.012 E50.93309
G1 X21.367 Y116.625 E50.98791
G1 X20.232 Y112.753 E51.12211
G1 X20.101 Y110.858 E51.18529
G1 X21.284 Y106.826 E51.32505
G1 X21.512 Y106.388 E51.34147
G1 X19.628 Y105.783 E51.40728
G1 X18.424 Y105.223 E51.45145
