;FLAVOR:Marlin
;TIME:3802
;Filament used: 3.66095m
;Layer height: 0.2
;MINX:66.307
;MINY:83.751
;MINZ:0.2
;MAXX:153.693
;MAXY:138.349
;MAXZ:16
;TARGET_MACHINE.NAME:Creality Ender-3 V3 SE
;Generated with Cura_SteamEngine 5.8.1
M82 ;absolute extrusion mode
M220 S100 ;Reset Feedrate
M221 S100 ;Reset Flowrate

G28 ;Home

M420 S1; Use saved mesh leveling data

G92 E0 ;Reset Extruder
G1 Z2.0 F3000 ;Move Z Axis up
G1 X-3 Y20 Z0.28 F5000.0 ;Move to start position
M190 S65 ; Set bed temperature and wait
M109 S205.0 ; Set hotend temperature and wait
G1 X-3 Y100.0 Z0.28 F1500.0 E15 ;Draw the first line
G1 X-2 Y100.0 Z0.28 F5000.0 ;Move to side a little
G1 X-2 Y20 Z0.28 F1500.0 E30 ;Draw the second line
G92 E0 ;Reset Extruder
G1 E-1.0000 F1800 ;Retract a bit
G1 Z2.0 F3000 ;Move Z Axis up
G1 E0.0000 F1800 

G92 E0
G92 E0
G1 F2400 E-0.8
;LAYER_COUNT:79
;LAYER:0
M107
G1 F300 Z0.4
G0 F9000 X71.421 Y96.496 Z0.4
;TYPE:SKIRT
G1 F300 Z0.2
G1 F2400 E0
G1 F1800 X75.124 Y93.658 E0.15517
G1 X79.476 Y91.853 E0.31188
G1 X81.901 Y91.538 E0.39321
G1 X82.213 Y90.476 E0.43003
G1 X83.097 Y88.779 E0.49367
G1 X85.548 Y86.19 E0.61225
G1 X87.342 Y84.929 E0.68518
G1 X90.983 Y83.913 E0.81091
G1 X93.188 Y83.751 E0.88444
G1 X96.886 Y84.793 E1.01223
G1 X98.805 Y85.793 E1.0842
G1 X101.37 Y88.487 E1.20792
G1 X102.418 Y90.14 E1.27302
G1 X102.764 Y91.325 E1.31408
G1 X136.936 Y91.382 E2.45064
G1 X140.526 Y91.85 E2.57106
G1 X144.868 Y93.654 E2.72744
G1 X148.587 Y96.504 E2.88328
G1 X151.424 Y100.206 E3.03841
G1 X153.223 Y104.536 E3.19436
G1 X153.693 Y108.136 E3.31511
G1 X153.691 Y111.887 E3.43987
G1 X153.223 Y115.463 E3.55982
G1 X151.424 Y119.792 E3.71574
G1 X148.581 Y123.502 E3.8712
G1 X144.871 Y126.345 E4.02666
G1 X140.526 Y128.15 E4.18315
G1 X136.936 Y128.618 E4.30357
G1 X134.995 Y128.64 E4.36813
G1 X134.21 Y131.43 E4.46453
G1 X133.247 Y133.254 E4.53313
G1 X130.594 Y135.905 E4.65787
G1 X128.843 Y137.044 E4.72735
G1 X125.179 Y138.066 E4.85387
G1 X122.905 Y138.227 E4.92969
G1 X119.304 Y137.173 E5.05448
G1 X115.59 Y138.224 E5.18286
G1 X113.344 Y138.041 E5.25781
G1 X110.787 Y137.291 E5.34644
G1 X107.57 Y138.188 E5.45752
G1 X105.3 Y138.349 E5.53321
G1 X104.392 Y138.086 E5.56465
G1 X103.019 Y138.18 E5.61042
G1 X99.72 Y137.211 E5.72479
G1 X96.056 Y138.247 E5.85143
G1 X93.815 Y138.064 E5.92621
G1 X90.652 Y137.139 E6.03582
G1 X88.771 Y136.128 E6.10685
G1 X86.088 Y133.445 E6.23305
G1 X84.98 Y131.735 E6.30082
G1 X84.065 Y128.632 E6.40842
G1 X83.038 Y128.616 E6.44258
G1 X79.466 Y128.148 E6.5624
G1 X75.134 Y126.348 E6.71843
G1 X71.411 Y123.494 E6.87445
G1 X68.577 Y119.797 E7.02939
G1 X66.777 Y115.464 E7.18544
G1 X66.307 Y111.864 E7.30619
G1 X66.309 Y108.113 E7.43095
G1 X66.777 Y104.537 E7.55091
G1 X68.576 Y100.208 E7.70683
G1 X71.421 Y96.496 E7.86238
G0 F9000 X71.704 Y96.783
G1 F1800 X75.328 Y94.006 E8.01423
G1 X79.577 Y92.243 E8.16724
G1 X82.212 Y91.901 E8.25561
G1 X82.586 Y90.626 E8.29981
G1 X83.427 Y89.011 E8.36037
G1 X85.81 Y86.494 E8.47565
G1 X87.516 Y85.295 E8.54501
G1 X91.05 Y84.309 E8.66704
G1 X93.148 Y84.155 E8.737
G1 X96.736 Y85.166 E8.86099
G1 X98.561 Y86.117 E8.92944
G1 X101.054 Y88.736 E9.0497
G1 X102.05 Y90.307 E9.11157
G1 X102.464 Y91.725 E9.1607
G1 X136.884 Y91.779 E10.30551
G1 X140.424 Y92.24 E10.42425
G1 X144.668 Y94.004 E10.57711
G1 X148.302 Y96.789 E10.72939
G1 X151.074 Y100.406 E10.88096
G1 X152.833 Y104.638 E11.03339
G1 X153.296 Y108.188 E11.15246
G1 X153.294 Y111.835 E11.27376
G1 X152.833 Y115.36 E11.392
G1 X151.074 Y119.592 E11.54444
G1 X148.296 Y123.217 E11.69634
G1 X144.671 Y125.995 E11.84824
G1 X140.424 Y127.76 E12.00121
G1 X136.884 Y128.221 E12.11994
G1 X134.691 Y128.243 E12.19288
G1 X133.837 Y131.279 E12.29778
G1 X132.921 Y133.014 E12.36304
G1 X130.339 Y135.594 E12.48444
G1 X128.677 Y136.675 E12.55038
G1 X125.111 Y137.67 E12.67352
G1 X122.948 Y137.823 E12.74564
G1 X119.306 Y136.757 E12.87185
G1 X115.551 Y137.819 E13.00164
G1 X113.417 Y137.645 E13.07286
G1 X110.791 Y136.875 E13.16388
G1 X107.503 Y137.792 E13.27741
G1 X105.342 Y137.945 E13.34946
G1 X104.435 Y137.682 E13.38087
G1 X103.064 Y137.776 E13.42658
G1 X99.722 Y136.795 E13.54242
G1 X96.017 Y137.842 E13.67048
G1 X93.886 Y137.668 E13.74159
G1 X90.802 Y136.766 E13.84846
G1 X89.014 Y135.805 E13.91598
G1 X86.402 Y133.193 E14.03884
G1 X85.347 Y131.565 E14.10336
G1 X84.366 Y128.236 E14.21879
G1 X83.09 Y128.219 E14.26124
G1 X79.569 Y127.758 E14.37934
G1 X75.337 Y125.999 E14.53178
G1 X71.696 Y123.209 E14.68434
G1 X68.926 Y119.594 E14.83582
G1 X67.167 Y115.362 E14.98825
G1 X66.704 Y111.812 E15.10732
G1 X66.706 Y108.165 E15.22862
G1 X67.167 Y104.64 E15.34686
G1 X68.926 Y100.408 E15.49929
G1 X71.704 Y96.783 E15.65119
G0 F9000 X71.989 Y97.068
G1 F1800 X75.529 Y94.355 E15.79953
G1 X79.678 Y92.633 E15.94894
G1 X82.522 Y92.264 E16.04433
G1 X82.959 Y90.776 E16.09591
G1 X83.756 Y89.246 E16.15329
G1 X86.075 Y86.796 E16.26549
G1 X87.69 Y85.661 E16.33114
G1 X91.117 Y84.705 E16.44948
G1 X93.108 Y84.559 E16.51588
G1 X96.586 Y85.539 E16.63606
G1 X98.317 Y86.441 E16.70098
G1 X100.738 Y88.985 E16.81779
G1 X101.682 Y90.474 E16.87642
G1 X102.164 Y92.125 E16.93363
G1 X136.832 Y92.176 E18.08669
G1 X140.323 Y92.631 E18.20379
G1 X144.467 Y94.353 E18.35304
G1 X148.017 Y97.074 E18.50181
G1 X150.725 Y100.607 E18.64987
G1 X152.442 Y104.739 E18.79869
G1 X152.899 Y108.24 E18.91612
G1 X152.897 Y111.783 E19.03396
G1 X152.442 Y115.259 E19.15056
G1 X150.725 Y119.391 E19.29938
G1 X148.013 Y122.93 E19.44768
G1 X144.467 Y125.647 E19.59626
G1 X140.323 Y127.369 E19.74552
G1 X136.832 Y127.824 E19.86261
G1 X134.387 Y127.846 E19.94393
G1 X133.464 Y131.128 E20.05733
G1 X132.595 Y132.774 E20.11924
G1 X130.084 Y135.283 E20.2373
G1 X128.51 Y136.307 E20.29975
G1 X125.044 Y137.274 E20.41944
G1 X122.991 Y137.419 E20.48789
G1 X119.522 Y136.403 E20.60811
G1 X119.355 Y136.327 E20.61422
G1 X115.512 Y137.414 E20.74705
G1 X113.49 Y137.249 E20.81453
G1 X110.795 Y136.459 E20.90793
G1 X107.436 Y137.396 E21.02392
G1 X105.385 Y137.541 E21.09231
G1 X104.479 Y137.278 E21.12368
G1 X103.109 Y137.372 E21.16936
G1 X99.724 Y136.379 E21.28669
G1 X95.978 Y137.437 E21.41615
G1 X93.957 Y137.272 E21.4836
G1 X90.952 Y136.393 E21.58773
G1 X89.257 Y135.482 E21.65173
G1 X86.714 Y132.939 E21.77135
G1 X85.715 Y131.397 E21.83246
G1 X84.745 Y128.105 E21.94661
G1 X84.718 Y127.84 E21.95546
G1 X83.142 Y127.822 E22.00789
G1 X79.67 Y127.367 E22.12435
G1 X75.538 Y125.65 E22.27318
G1 X71.981 Y122.924 E22.42223
G1 X69.275 Y119.393 E22.57019
G1 X67.558 Y115.261 E22.71902
G1 X67.101 Y111.76 E22.83645
G1 X67.103 Y108.217 E22.95429
G1 X67.558 Y104.741 E23.07089
G1 X69.275 Y100.609 E23.21971
G1 X71.989 Y97.068 E23.3681
G0 F9000 X72.272 Y97.355
G1 F1800 X75.733 Y94.703 E23.51312
G1 X79.779 Y93.023 E23.65883
G1 X82.833 Y92.627 E23.76126
G1 X83.332 Y90.926 E23.82022
G1 X84.086 Y89.478 E23.87452
G1 X86.337 Y87.1 E23.98342
G1 X87.863 Y86.028 E24.04545
G1 X91.185 Y85.101 E24.16016
G1 X93.068 Y84.963 E24.22296
G1 X96.436 Y85.912 E24.33934
G1 X98.073 Y86.765 E24.40074
G1 X100.422 Y89.234 E24.51408
G1 X101.314 Y90.641 E24.56949
G1 X101.864 Y92.525 E24.63477
G1 X136.78 Y92.573 E25.79608
G1 X140.222 Y93.022 E25.91153
G1 X144.266 Y94.702 E26.05718
G1 X147.732 Y97.359 E26.20244
G1 X150.376 Y100.808 E26.34698
G1 X152.051 Y104.84 E26.4922
G1 X152.502 Y108.292 E26.60799
G1 X152.5 Y111.731 E26.72237
G1 X152.052 Y115.156 E26.83726
G1 X150.375 Y119.191 E26.98259
G1 X147.728 Y122.645 E27.12733
G1 X144.266 Y125.298 E27.27239
G1 X140.222 Y126.978 E27.41804
G1 X136.78 Y127.427 E27.53349
G1 X134.083 Y127.448 E27.6232
G1 X133.091 Y130.977 E27.74512
G1 X132.269 Y132.534 E27.80368
G1 X129.829 Y134.972 E27.91841
G1 X128.343 Y135.939 E27.97737
G1 X124.977 Y136.878 E28.0936
G1 X123.035 Y137.015 E28.15835
G1 X119.634 Y136.019 E28.27622
G1 X119.361 Y135.882 E28.28638
G1 X119.198 Y135.96 E28.29239
G1 X115.474 Y137.009 E28.42107
G1 X113.562 Y136.853 E28.48488
G1 X110.774 Y136.036 E28.58151
G1 X110.672 Y136.079 E28.58519
G1 X107.369 Y137 E28.69924
G1 X105.428 Y137.137 E28.76396
G1 X104.523 Y136.874 E28.7953
G1 X103.154 Y136.968 E28.84094
G1 X99.726 Y135.963 E28.95976
G1 X95.939 Y137.032 E29.09063
G1 X94.028 Y136.876 E29.15441
G1 X91.102 Y136.02 E29.2558
G1 X89.5 Y135.159 E29.3163
G1 X87.028 Y132.687 E29.43257
G1 X86.082 Y131.227 E29.49043
G1 X85.129 Y127.992 E29.6026
G1 X85.091 Y127.444 E29.62087
G1 X83.194 Y127.425 E29.68397
G1 X79.773 Y126.977 E29.79872
G1 X75.738 Y125.3 E29.94406
G1 X72.266 Y122.639 E30.08955
G1 X69.624 Y119.192 E30.234
G1 X67.949 Y115.16 E30.37922
G1 X67.498 Y111.708 E30.49501
G1 X67.5 Y108.269 E30.60939
G1 X67.948 Y104.844 E30.72428
G1 X69.625 Y100.809 E30.86961
G1 X72.272 Y97.355 E31.01435
G0 F9000 X72.557 Y97.64
G1 F1800 X75.934 Y95.052 E31.15586
G1 X79.88 Y93.413 E31.29797
G1 X83.143 Y92.99 E31.40741
G1 X83.705 Y91.076 E31.47375
G1 X84.416 Y89.71 E31.52497
G1 X86.599 Y87.404 E31.63059
G1 X88.037 Y86.394 E31.68903
G1 X91.252 Y85.497 E31.80005
G1 X93.028 Y85.367 E31.85928
G1 X96.286 Y86.285 E31.97186
G1 X97.829 Y87.089 E32.02973
G1 X100.106 Y89.483 E32.13962
G1 X100.946 Y90.808 E32.1918
G1 X101.564 Y92.925 E32.26515
G1 X136.728 Y92.97 E33.43471
G1 X140.12 Y93.412 E33.54848
G1 X144.063 Y95.051 E33.6905
G1 X147.447 Y97.644 E33.8323
G1 X150.027 Y101.011 E33.97338
G1 X151.661 Y104.942 E34.11497
G1 X152.105 Y108.344 E34.22908
G1 X152.103 Y111.679 E34.34001
G1 X151.661 Y115.055 E34.45325
G1 X150.026 Y118.99 E34.59498
G1 X147.443 Y122.36 E34.7362
G1 X144.066 Y124.948 E34.87771
G1 X140.12 Y126.588 E35.01984
G1 X136.728 Y127.03 E35.13361
G1 X133.666 Y127.051 E35.23546
G1 X133.672 Y127.433 E35.24816
G1 X132.718 Y130.826 E35.36539
G1 X131.943 Y132.294 E35.4206
G1 X129.574 Y134.661 E35.53199
G1 X128.176 Y135.571 E35.58747
G1 X124.91 Y136.482 E35.70024
G1 X123.079 Y136.611 E35.76129
G1 X119.746 Y135.635 E35.8768
G1 X119.357 Y135.425 E35.89151
G1 X119.09 Y135.575 E35.90169
G1 X115.436 Y136.604 E36.02795
G1 X113.635 Y136.457 E36.08805
G1 X110.875 Y135.648 E36.18371
G1 X110.753 Y135.594 E36.18815
G1 X110.565 Y135.694 E36.19523
G1 X107.302 Y136.604 E36.3079
G1 X105.471 Y136.733 E36.36895
G1 X104.567 Y136.47 E36.40027
G1 X103.199 Y136.564 E36.44587
G1 X99.934 Y135.607 E36.55904
G1 X99.728 Y135.506 E36.56667
G1 X99.554 Y135.596 E36.57318
G1 X95.9 Y136.627 E36.69946
G1 X94.099 Y136.48 E36.75956
G1 X91.252 Y135.647 E36.85822
G1 X89.743 Y134.836 E36.9152
G1 X87.342 Y132.435 E37.02814
G1 X86.449 Y131.057 E37.08275
G1 X85.525 Y127.919 E37.19155
G1 X85.465 Y127.047 E37.22062
G1 X83.246 Y127.028 E37.29443
G1 X79.874 Y126.586 E37.40754
G1 X75.939 Y124.951 E37.54927
G1 X72.553 Y122.356 E37.69116
G1 X69.973 Y118.989 E37.83224
G1 X68.339 Y115.058 E37.97383
G1 X67.895 Y111.656 E38.08794
G1 X67.897 Y108.321 E38.19887
G1 X68.339 Y104.945 E38.31211
G1 X69.974 Y101.01 E38.45384
G1 X72.557 Y97.64 E38.59506
G0 F9000 X72.842 Y97.925
G1 F1800 X76.135 Y95.401 E38.73306
G1 X79.981 Y93.804 E38.87157
G1 X83.454 Y93.353 E38.98805
G1 X84.078 Y91.226 E39.06177
G1 X84.746 Y89.942 E39.10991
G1 X86.861 Y87.708 E39.21223
G1 X88.211 Y86.76 E39.2671
G1 X91.319 Y85.893 E39.37442
G1 X92.988 Y85.771 E39.43008
G1 X96.136 Y86.658 E39.53886
G1 X97.585 Y87.413 E39.5932
G1 X99.79 Y89.732 E39.69963
G1 X100.578 Y90.975 E39.74858
G1 X101.264 Y93.325 E39.83001
G1 X136.676 Y93.367 E41.00782
G1 X140.019 Y93.803 E41.11995
G1 X143.862 Y95.4 E41.25836
G1 X147.162 Y97.929 E41.39665
G1 X149.678 Y101.212 E41.53422
G1 X151.27 Y105.043 E41.6722
G1 X151.708 Y108.396 E41.78467
G1 X151.706 Y111.627 E41.89213
G1 X151.271 Y114.952 E42.00366
G1 X149.676 Y118.79 E42.1419
G1 X147.158 Y122.075 E42.27957
G1 X143.865 Y124.599 E42.41756
G1 X140.019 Y126.197 E42.55608
G1 X136.676 Y126.633 E42.66821
G1 X133.231 Y126.654 E42.7828
G1 X133.287 Y127.325 E42.80519
G1 X132.345 Y130.675 E42.92094
G1 X131.617 Y132.054 E42.9728
G1 X129.319 Y134.35 E43.08084
G1 X128.009 Y135.203 E43.13284
G1 X124.843 Y136.086 E43.24216
G1 X123.123 Y136.207 E43.29951
G1 X119.899 Y135.263 E43.41124
G1 X119.34 Y134.962 E43.43236
G1 X118.982 Y135.19 E43.44647
G1 X115.398 Y136.199 E43.57031
G1 X113.707 Y136.061 E43.62674
G1 X110.987 Y135.264 E43.72101
G1 X110.726 Y135.134 E43.73071
G1 X110.458 Y135.309 E43.74136
G1 X107.235 Y136.208 E43.85265
G1 X105.514 Y136.329 E43.91003
G1 X104.611 Y136.066 E43.94131
G1 X103.244 Y136.16 E43.98688
G1 X100.047 Y135.223 E44.09769
G1 X99.711 Y135.042 E44.11038
G1 X99.445 Y135.211 E44.12086
G1 X95.861 Y136.222 E44.24472
G1 X94.17 Y136.084 E44.30115
G1 X91.402 Y135.274 E44.39708
G1 X89.986 Y134.513 E44.45054
G1 X87.654 Y132.181 E44.56023
G1 X86.817 Y130.889 E44.61143
G1 X85.921 Y127.846 E44.71694
G1 X85.839 Y126.65 E44.75681
G1 X83.298 Y126.631 E44.84133
G1 X79.977 Y126.196 E44.95273
G1 X76.139 Y124.601 E45.09097
G1 X72.838 Y122.071 E45.2293
G1 X70.322 Y118.788 E45.36687
G1 X68.73 Y114.957 E45.50485
G1 X68.292 Y111.604 E45.61732
G1 X68.294 Y108.373 E45.72478
G1 X68.729 Y105.048 E45.83632
G1 X70.324 Y101.21 E45.97455
G1 X72.842 Y97.925 E46.11222
G0 F9000 X73.127 Y98.21
G1 F1800 X76.336 Y95.75 E46.2467
G1 X80.082 Y94.194 E46.38162
G1 X83.422 Y93.761 E46.49364
G1 X83.753 Y93.756 E46.50465
G1 X84.451 Y91.376 E46.58714
G1 X85.076 Y90.174 E46.6322
G1 X87.123 Y88.012 E46.73123
G1 X88.384 Y87.127 E46.78246
G1 X91.387 Y86.289 E46.88616
G1 X92.948 Y86.175 E46.93822
G1 X95.986 Y87.031 E47.0432
G1 X97.341 Y87.737 E47.09401
G1 X99.474 Y89.981 E47.19699
G1 X100.21 Y91.142 E47.24271
G1 X100.964 Y93.725 E47.3322
G1 X136.624 Y93.764 E48.51826
G1 X139.918 Y94.194 E48.62875
G1 X143.661 Y95.749 E48.76356
G1 X146.875 Y98.212 E48.89824
G1 X149.33 Y101.416 E49.03249
G1 X150.879 Y105.144 E49.16676
G1 X151.311 Y108.448 E49.27759
G1 X151.309 Y111.575 E49.38159
G1 X150.88 Y114.851 E49.49148
G1 X149.327 Y118.589 E49.62611
G1 X146.873 Y121.79 E49.76026
G1 X143.664 Y124.25 E49.89475
G1 X139.918 Y125.806 E50.02966
G1 X136.624 Y126.236 E50.14015
G1 X132.797 Y126.256 E50.26744
G1 X132.882 Y127.288 E50.30188
G1 X131.972 Y130.524 E50.41368
G1 X131.291 Y131.814 E50.4622
G1 X129.064 Y134.039 E50.5669
G1 X127.842 Y134.835 E50.61541
G1 X124.777 Y135.69 E50.72125
G1 X123.167 Y135.803 E50.77493
G1 X120.052 Y134.891 E50.88288
G1 X119.323 Y134.498 E50.91043
G1 X118.817 Y134.821 E50.93039
G1 X115.36 Y135.794 E51.04984
G1 X113.779 Y135.665 E51.1026
G1 X111.099 Y134.88 E51.19548
G1 X110.707 Y134.67 E51.21027
G1 X110.292 Y134.94 E51.22674
G1 X107.167 Y135.812 E51.33465
G1 X105.557 Y135.925 E51.38833
G1 X104.655 Y135.662 E51.41958
G1 X103.288 Y135.756 E51.46515
G1 X100.2 Y134.851 E51.57218
G1 X99.695 Y134.578 E51.59127
G1 X99.281 Y134.842 E51.6076
G1 X95.822 Y135.817 E51.72713
G1 X94.241 Y135.688 E51.77989
G1 X91.552 Y134.901 E51.87308
G1 X90.229 Y134.19 E51.92304
G1 X87.968 Y131.929 E52.02939
G1 X87.184 Y130.719 E52.07734
G1 X86.317 Y127.773 E52.17948
G1 X86.213 Y126.252 E52.23019
G1 X83.35 Y126.234 E52.32541
G1 X80.08 Y125.806 E52.4351
G1 X76.339 Y124.251 E52.56985
G1 X73.125 Y121.788 E52.70453
G1 X70.67 Y118.584 E52.83878
G1 X69.121 Y114.856 E52.97305
G1 X68.689 Y111.552 E53.08388
G1 X68.691 Y108.425 E53.18788
G1 X69.12 Y105.149 E53.29777
G1 X70.673 Y101.411 E53.4324
G1 X73.127 Y98.21 E53.56655
G0 F9000 X73.412 Y98.495
G1 F1800 X76.539 Y96.099 E53.69758
G1 X80.184 Y94.584 E53.82887
G1 X83.428 Y94.161 E53.93767
G1 X84.054 Y94.151 E53.9585
G1 X84.824 Y91.526 E54.04948
G1 X85.405 Y90.409 E54.09136
G1 X87.388 Y88.314 E54.18731
G1 X88.557 Y87.494 E54.2348
G1 X91.455 Y86.685 E54.33487
G1 X92.908 Y86.579 E54.38333
G1 X95.836 Y87.404 E54.4845
G1 X97.097 Y88.061 E54.5318
G1 X99.158 Y90.23 E54.63131
G1 X99.842 Y91.309 E54.6738
G1 X100.615 Y93.959 E54.76562
G1 X100.637 Y94.125 E54.77119
G1 X136.572 Y94.161 E55.96639
G1 X139.816 Y94.584 E56.0752
G1 X143.461 Y96.099 E56.20649
G1 X146.59 Y98.497 E56.33761
G1 X148.981 Y101.617 E56.46834
G1 X150.488 Y105.245 E56.59901
G1 X150.914 Y108.5 E56.70819
G1 X150.912 Y111.523 E56.80874
G1 X150.49 Y114.748 E56.91692
G1 X148.978 Y118.386 E57.04795
G1 X146.588 Y121.505 E57.17864
G1 X143.461 Y123.901 E57.30967
G1 X139.816 Y125.416 E57.44096
G1 X136.572 Y125.839 E57.54977
G1 X132.363 Y125.858 E57.68976
G1 X132.477 Y127.25 E57.73621
G1 X131.599 Y130.373 E57.84411
