;FLAVOR:Marlin
;TIME:4086
;Filament used: 5.144m
;Layer height: 0.2
;MINX:77.2
;MINY:67.2
;MINZ:0.2
;MAXX:142.8
;MAXY:152.8
;MAXZ:10.2
;TARGET_MACHINE.NAME:Creality Ender-3 V3 SE
;Generated with Cura_SteamEngine 5.8.1
M82 ;absolute extrusion mode
M220 S100 ;Reset Feedrate
M221 S100 ;Reset Flowrate

G28 ;Home

M420 S1; Use saved mesh leveling data

G92 E0 ;Reset Extruder
G1 Z2.0 F3000 ;Move Z Axis up
G1 X-3 Y20 Z0.28 F5000.0 ;Move to start position
M190 S65 ; Set bed temperature and wait
M109 S205.0 ; Set hotend temperature and wait
G1 X-3 Y100.0 Z0.28 F1500.0 E15 ;Draw the first line
G1 X-2 Y100.0 Z0.28 F5000.0 ;Move to side a little
G1 X-2 Y20 Z0.28 F1500.0 E30 ;Draw the second line
G92 E0 ;Reset Extruder
G1 E-1.0000 F1800 ;Retract a bit
G1 Z2.0 F3000 ;Move Z Axis up
G1 E0.0000 F1800 

G92 E0
G92 E0
G1 F2400 E-0.8
;LAYER_COUNT:50
;LAYER:0
M107
G1 F300 Z0.4
G0 F9000 X80.96 Y70.894 Z0.4
;TYPE:SKIRT
G1 F300 Z0.2
G1 F2400 E0
G1 F1800 X82.838 Y69.344 E0.08099
G1 X85.104 Y68.138 E0.16637
G1 X87.59 Y67.398 E0.25264
G1 X90.001 Y67.2 E0.3331
G1 X130.209 Y67.212 E1.67042
G1 X132.472 Y67.411 E1.74598
G1 X134.913 Y68.14 E1.83071
G1 X137.205 Y69.371 E1.91724
G1 X139.091 Y70.94 E1.99884
G1 X140.659 Y72.842 E2.08082
G1 X141.861 Y75.103 E2.16599
G1 X142.599 Y77.585 E2.25212
G1 X142.8 Y80.012 E2.33311
G1 X142.761 Y90.81 E2.69226
G1 X142.572 Y92.641 E2.75348
G1 X141.787 Y95.097 E2.83924
G1 X140.446 Y97.469 E2.92987
G1 X138.691 Y99.447 E3.01782
G1 X137.765 Y100.138 E3.05625
G1 X137.765 Y119.855 E3.71204
G1 X138.686 Y120.541 E3.75024
G1 X140.461 Y122.544 E3.83925
G1 X141.75 Y124.811 E3.92599
G1 X142.58 Y127.398 E4.01635
G1 X142.787 Y129.727 E4.09412
G1 X142.793 Y140.234 E4.44358
G1 X142.597 Y142.499 E4.5192
G1 X141.874 Y144.872 E4.60171
G1 X140.628 Y147.189 E4.68921
G1 X139.039 Y149.107 E4.77205
G1 X137.168 Y150.651 E4.85273
G1 X134.896 Y151.862 E4.93836
G1 X132.41 Y152.602 E5.02463
G1 X129.999 Y152.8 E5.10509
G1 X89.24 Y152.761 E6.46074
G1 X87.507 Y152.589 E6.51867
G1 X85.043 Y151.846 E6.60426
G1 X82.851 Y150.658 E6.68719
G1 X80.893 Y149.039 E6.77169
G1 X79.338 Y147.141 E6.8533
G1 X78.14 Y144.899 E6.93785
G1 X77.401 Y142.415 E7.02405
G1 X77.2 Y139.987 E7.10508
G1 X77.245 Y129.187 E7.46429
G1 X77.489 Y127.328 E7.52665
G1 X78.086 Y125.188 E7.60054
G1 X79.407 Y122.841 E7.69012
G1 X80.555 Y121.307 E7.75385
G1 X82.277 Y119.779 E7.83042
G1 X82.278 Y100.203 E8.48152
G1 X81.923 Y99.917 E8.49668
G1 X80.548 Y98.672 E8.55838
G1 X79.128 Y96.809 E8.63629
G1 X78.075 Y94.725 E8.71395
G1 X77.37 Y92.269 E8.79893
G1 X77.2 Y89.988 E8.87501
G1 X77.239 Y79.24 E9.23249
G1 X77.411 Y77.505 E9.29048
G1 X78.154 Y75.042 E9.37605
G1 X79.34 Y72.853 E9.45885
G1 X80.96 Y70.894 E9.5434
G0 F9000 X81.244 Y71.178
G1 F1800 X83.061 Y69.678 E9.62177
G1 X85.258 Y68.509 E9.70454
G1 X87.661 Y67.794 E9.78793
G1 X90.001 Y67.6 E9.86602
G1 X130.174 Y67.61 E11.20218
G1 X132.395 Y67.805 E11.27634
G1 X134.761 Y68.512 E11.35847
G1 X136.976 Y69.702 E11.4421
G1 X138.808 Y71.226 E11.52136
G1 X140.325 Y73.066 E11.60068
G1 X141.49 Y75.257 E11.68321
G1 X142.203 Y77.656 E11.76645
G1 X142.4 Y80.011 E11.84505
G1 X142.363 Y90.769 E12.20287
G1 X142.178 Y92.559 E12.26272
G1 X141.418 Y94.937 E12.34575
G1 X140.118 Y97.237 E12.43363
G1 X138.422 Y99.149 E12.51863
G1 X137.365 Y99.937 E12.56248
G1 X137.365 Y120.056 E13.23164
G1 X138.417 Y120.839 E13.27526
G1 X140.132 Y122.775 E13.36128
G1 X141.382 Y124.974 E13.44541
G1 X142.186 Y127.48 E13.53295
G1 X142.387 Y129.727 E13.60798
G1 X142.394 Y140.2 E13.95632
G1 X142.202 Y142.422 E14.03049
G1 X141.501 Y144.722 E14.11047
G1 X140.296 Y146.963 E14.1951
G1 X138.755 Y148.823 E14.27543
G1 X136.945 Y150.317 E14.35349
G1 X134.742 Y151.491 E14.43652
G1 X132.339 Y152.206 E14.51991
G1 X129.999 Y152.4 E14.598
G1 X89.279 Y152.363 E15.95236
G1 X87.585 Y152.195 E16.00897
G1 X85.2 Y151.476 E16.09183
G1 X83.073 Y150.323 E16.1723
G1 X81.178 Y148.756 E16.25408
G1 X79.672 Y146.918 E16.33311
G1 X78.511 Y144.745 E16.41506
G1 X77.797 Y142.344 E16.49837
G1 X77.6 Y139.989 E16.57697
G1 X77.642 Y129.239 E16.93452
G1 X77.886 Y127.38 E16.99688
G1 X78.458 Y125.344 E17.06722
G1 X79.727 Y123.081 E17.15352
G1 X80.85 Y121.58 E17.21586
G1 X82.397 Y120.207 E17.28466
G1 X82.677 Y119.982 E17.29661
G1 X82.678 Y100.011 E17.96085
G1 X82.192 Y99.621 E17.98157
G1 X80.845 Y98.401 E18.04202
G1 X79.467 Y96.594 E18.1176
G1 X78.448 Y94.577 E18.19276
G1 X77.766 Y92.202 E18.27495
G1 X77.6 Y89.989 E18.34876
G1 X77.637 Y79.279 E18.70498
G1 X77.805 Y77.585 E18.76159
G1 X78.525 Y75.198 E18.84452
G1 X79.675 Y73.075 E18.92482
G1 X81.244 Y71.178 E19.0067
G0 F9000 X81.525 Y71.465
G1 F1800 X83.288 Y70.01 E19.08273
G1 X85.412 Y68.88 E19.16275
G1 X87.732 Y68.19 E19.24326
G1 X90.001 Y68 E19.31899
G1 X130.139 Y68.008 E20.65398
G1 X132.318 Y68.199 E20.72673
G1 X134.609 Y68.884 E20.80627
G1 X136.751 Y70.034 E20.88713
G1 X138.522 Y71.508 E20.96376
G1 X139.991 Y73.29 E21.04058
G1 X141.119 Y75.411 E21.12048
G1 X141.807 Y77.726 E21.2008
G1 X142 Y80.01 E21.27704
G1 X141.965 Y90.728 E21.63352
G1 X141.784 Y92.477 E21.69201
G1 X141.049 Y94.777 E21.77232
G1 X139.79 Y97.005 E21.85743
G1 X138.153 Y98.851 E21.93949
G1 X136.965 Y99.736 E21.98877
G1 X136.965 Y120.257 E22.6713
G1 X138.145 Y121.135 E22.72022
G1 X139.804 Y123.009 E22.80346
G1 X141.014 Y125.137 E22.88488
G1 X141.792 Y127.562 E22.96959
G1 X141.987 Y129.727 E23.04189
G1 X141.995 Y140.165 E23.38906
G1 X141.806 Y142.347 E23.4619
G1 X141.129 Y144.571 E23.53922
G1 X139.964 Y146.737 E23.62102
G1 X138.474 Y148.536 E23.69872
G1 X136.718 Y149.985 E23.77444
G1 X134.588 Y151.12 E23.85471
G1 X132.268 Y151.81 E23.93522
G1 X129.999 Y152 E24.01095
G1 X89.318 Y151.965 E25.364
G1 X87.665 Y151.801 E25.41925
G1 X85.354 Y151.104 E25.49954
G1 X83.297 Y149.99 E25.57734
G1 X81.463 Y148.473 E25.6565
G1 X80.006 Y146.695 E25.73296
G1 X78.882 Y144.591 E25.8123
G1 X78.193 Y142.274 E25.8927
G1 X78 Y139.99 E25.96893
G1 X78.039 Y129.291 E26.32479
G1 X78.283 Y127.432 E26.38715
G1 X78.831 Y125.497 E26.45404
G1 X80.047 Y123.321 E26.53695
G1 X81.145 Y121.853 E26.59792
G1 X82.648 Y120.519 E26.66476
G1 X83.077 Y120.174 E26.68307
G1 X83.078 Y99.819 E27.36008
G1 X82.46 Y99.324 E27.38641
G1 X81.139 Y98.128 E27.44568
G1 X79.808 Y96.382 E27.5187
G1 X78.821 Y94.429 E27.59149
G1 X78.162 Y92.134 E27.6709
G1 X78 Y89.99 E27.74241
G1 X78.035 Y79.318 E28.09737
G1 X78.199 Y77.663 E28.15268
G1 X78.895 Y75.355 E28.23286
G1 X80.01 Y73.297 E28.31071
G1 X81.525 Y71.465 E28.38978
G0 F9000 X81.809 Y71.749
G1 F1800 X83.511 Y70.344 E28.46319
G1 X85.566 Y69.251 E28.5406
G1 X87.802 Y68.586 E28.61819
G1 X90.001 Y68.4 E28.69159
G1 X130.104 Y68.406 E30.02542
G1 X132.241 Y68.593 E30.09677
G1 X134.457 Y69.256 E30.1737
G1 X136.522 Y70.365 E30.25166
G1 X138.239 Y71.793 E30.32594
G1 X139.657 Y73.514 E30.40011
G1 X140.748 Y75.565 E30.47738
G1 X141.411 Y77.797 E30.55482
G1 X141.6 Y80.009 E30.62866
G1 X141.567 Y90.687 E30.98381
G1 X141.39 Y92.395 E31.04092
G1 X140.68 Y94.617 E31.11851
G1 X139.462 Y96.773 E31.20087
G1 X137.884 Y98.553 E31.27999
G1 X136.565 Y99.535 E31.33468
G1 X136.565 Y120.458 E32.03058
G1 X137.875 Y121.433 E32.0849
G1 X139.475 Y123.24 E32.16517
G1 X140.646 Y125.3 E32.24398
G1 X141.398 Y127.644 E32.32586
G1 X141.587 Y129.727 E32.39543
G1 X141.596 Y140.131 E32.74146
G1 X141.411 Y142.27 E32.81287
G1 X140.756 Y144.421 E32.88766
G1 X139.632 Y146.511 E32.96659
G1 X138.19 Y148.252 E33.04178
G1 X136.495 Y149.651 E33.11487
G1 X134.434 Y150.749 E33.19254
G1 X132.198 Y151.414 E33.27013
G1 X129.999 Y151.6 E33.34353
G1 X89.357 Y151.567 E34.69529
G1 X87.743 Y151.407 E34.74924
G1 X85.511 Y150.734 E34.82678
G1 X83.519 Y149.655 E34.90213
G1 X81.748 Y148.19 E34.97857
G1 X80.34 Y146.472 E35.05245
G1 X79.253 Y144.437 E35.12919
G1 X78.589 Y142.203 E35.2067
G1 X78.4 Y139.991 E35.28054
G1 X78.436 Y129.342 E35.63473
G1 X78.668 Y127.541 E35.69513
G1 X79.204 Y125.65 E35.7605
G1 X80.367 Y123.561 E35.84002
G1 X81.44 Y122.126 E35.89962
G1 X82.899 Y120.831 E35.9645
G1 X83.477 Y120.366 E35.98917
G1 X83.478 Y99.67 E36.67753
G1 X83.364 Y99.536 E36.68338
G1 X82.729 Y99.028 E36.71042
G1 X81.436 Y97.857 E36.76845
G1 X80.147 Y96.167 E36.83914
G1 X79.194 Y94.281 E36.90942
G1 X78.558 Y92.066 E36.98607
G1 X78.4 Y89.991 E37.05528
G1 X78.433 Y79.357 E37.40897
G1 X78.593 Y77.741 E37.46298
G1 X79.265 Y75.512 E37.54042
G1 X80.345 Y73.519 E37.61581
G1 X81.809 Y71.749 E37.69221
G0 F9000 X82.093 Y72.033
G1 F1800 X83.734 Y70.678 E37.76299
G1 X85.72 Y69.622 E37.8378
G1 X87.873 Y68.982 E37.91251
G1 X90.001 Y68.8 E37.98355
G1 X130.069 Y68.804 E39.31621
G1 X132.164 Y68.987 E39.38616
G1 X134.305 Y69.628 E39.46049
G1 X136.297 Y70.697 E39.53568
G1 X137.953 Y72.075 E39.60734
G1 X139.323 Y73.738 E39.679
G1 X140.377 Y75.719 E39.75363
G1 X141.015 Y77.868 E39.82819
G1 X141.2 Y80.008 E39.89964
G1 X141.169 Y90.646 E40.25346
G1 X140.996 Y92.313 E40.3092
G1 X140.311 Y94.457 E40.38406
G1 X139.134 Y96.541 E40.46367
G1 X137.615 Y98.255 E40.53984
G1 X136.165 Y99.334 E40.59995
G1 X136.165 Y120.659 E41.30923
G1 X137.605 Y121.731 E41.36894
G1 X139.146 Y123.471 E41.44624
G1 X140.278 Y125.463 E41.52245
G1 X141.004 Y127.726 E41.60149
G1 X141.187 Y129.727 E41.66832
G1 X141.197 Y140.097 E42.01323
G1 X141.016 Y142.193 E42.0832
G1 X140.383 Y144.271 E42.15545
G1 X139.3 Y146.285 E42.23151
G1 X137.906 Y147.968 E42.3042
G1 X136.272 Y149.317 E42.37467
G1 X134.28 Y150.378 E42.44974
G1 X132.127 Y151.018 E42.52444
G1 X129.999 Y151.2 E42.59548
G1 X89.396 Y151.169 E43.94594
G1 X87.821 Y151.013 E43.99858
G1 X85.668 Y150.364 E44.07337
G1 X83.741 Y149.32 E44.14627
G1 X82.033 Y147.907 E44.22
G1 X80.674 Y146.249 E44.2913
G1 X79.624 Y144.283 E44.36543
G1 X78.985 Y142.132 E44.44006
G1 X78.8 Y139.992 E44.5115
G1 X78.833 Y129.392 E44.86406
G1 X79.053 Y127.65 E44.92246
G1 X79.576 Y125.806 E44.98621
G1 X80.717 Y123.756 E45.06425
G1 X81.737 Y122.396 E45.12079
G1 X83.15 Y121.143 E45.1836
G1 X83.727 Y120.679 E45.20823
G1 X83.877 Y120.458 E45.21711
G1 X83.878 Y99.522 E45.91345
G1 X83.644 Y99.248 E45.92543
G1 X82.997 Y98.731 E45.95298
G1 X81.732 Y97.586 E46.00973
G1 X80.486 Y95.952 E46.07807
G1 X79.567 Y94.133 E46.14585
G1 X78.954 Y91.999 E46.2197
G1 X78.8 Y89.992 E46.28665
G1 X78.831 Y79.396 E46.63908
G1 X78.987 Y77.819 E46.69178
G1 X79.636 Y75.667 E46.76654
G1 X80.678 Y73.743 E46.83932
G1 X82.093 Y72.033 E46.91314
G0 F9000 X82.374 Y72.32
G1 F1800 X83.961 Y71.011 E46.98156
G1 X85.874 Y69.993 E47.05364
G1 X87.944 Y69.378 E47.12546
G1 X90.001 Y69.2 E47.19413
G1 X130.034 Y69.202 E48.52564
G1 X132.087 Y69.381 E48.59418
G1 X134.153 Y70 E48.66591
G1 X136.068 Y71.028 E48.7382
G1 X137.67 Y72.36 E48.8075
G1 X138.989 Y73.962 E48.87652
G1 X140.006 Y75.873 E48.94852
G1 X140.62 Y77.943 E49.02033
G1 X140.8 Y80.007 E49.08924
G1 X140.771 Y90.605 E49.44173
G1 X140.602 Y92.231 E49.4961
G1 X139.942 Y94.297 E49.56824
G1 X138.806 Y96.309 E49.64509
G1 X137.346 Y97.957 E49.71832
G1 X135.765 Y99.133 E49.78385
G1 X135.765 Y120.869 E50.5068
G1 X136.064 Y121.076 E50.51889
G1 X137.332 Y122.026 E50.57159
G1 X138.818 Y123.705 E50.64616
G1 X139.91 Y125.626 E50.71966
G1 X140.61 Y127.808 E50.79587
G1 X140.787 Y129.727 E50.85997
G1 X140.797 Y140.097 E51.20488
G1 X140.622 Y142.112 E51.27215
G1 X140.01 Y144.121 E51.342
G1 X138.968 Y146.059 E51.41519
G1 X137.625 Y147.681 E51.48523
G1 X136.045 Y148.985 E51.55336
G1 X134.126 Y150.007 E51.62568
G1 X132.056 Y150.622 E51.6975
G1 X129.999 Y150.8 E51.76617
G1 X89.435 Y150.771 E53.11534
G1 X87.899 Y150.619 E53.16667
G1 X85.825 Y149.994 E53.23872
G1 X83.963 Y148.985 E53.30916
G1 X82.318 Y147.624 E53.38017
G1 X81.008 Y146.026 E53.4489
G1 X79.995 Y144.129 E53.52042
G1 X79.38 Y142.057 E53.59231
G1 X79.2 Y139.993 E53.66122
G1 X79.23 Y129.441 E54.01218
G1 X79.438 Y127.759 E54.06855
G1 X79.948 Y125.96 E54.13074
G1 X81.037 Y123.996 E54.20544
G1 X82.034 Y122.667 E54.26069
G1 X83.4 Y121.455 E54.32143
G1 X83.872 Y121.076 E54.34157
G1 X84.071 Y120.883 E54.35079
G1 X84.277 Y120.582 E54.36292
G1 X84.278 Y99.437 E55.0662
G1 X84.185 Y99.266 E55.07268
G1 X83.924 Y98.96 E55.08606
G1 X83.247 Y98.419 E55.11488
G1 X82.05 Y97.343 E55.16841
G1 X80.825 Y95.737 E55.23559
G1 X79.94 Y93.985 E55.30088
G1 X79.35 Y91.931 E55.37196
G1 X79.2 Y89.993 E55.43661
G1 X79.229 Y79.435 E55.78777
G1 X79.381 Y77.897 E55.83917
G1 X80.006 Y75.824 E55.91119
G1 X81.013 Y73.965 E55.98151
G1 X82.374 Y72.32 E56.05252
G0 F9000 X82.657 Y72.605
G1 F1800 X84.185 Y71.345 E56.11839
G1 X86.028 Y70.364 E56.18783
G1 X88.019 Y69.773 E56.25691
G1 X90.001 Y69.6 E56.32308
G1 X129.999 Y69.6 E57.65342
G1 X132.01 Y69.775 E57.72056
G1 X134.001 Y70.372 E57.78969
G1 X135.839 Y71.359 E57.85908
G1 X137.387 Y72.645 E57.92601
G1 X138.655 Y74.186 E57.99239
G1 X139.635 Y76.027 E58.06176
G1 X140.226 Y78.018 E58.13083
G1 X140.4 Y80.006 E58.19721
G1 X140.373 Y90.564 E58.54837
G1 X140.208 Y92.149 E58.60137
G1 X139.573 Y94.137 E58.67078
G1 X138.478 Y96.077 E58.74488
G1 X137.074 Y97.662 E58.8153
G1 X135.664 Y98.716 E58.87385
G1 X135.365 Y98.923 E58.88595
G1 X135.365 Y121.079 E59.62286
G1 X135.824 Y121.396 E59.64141
G1 X137.058 Y122.321 E59.69271
G1 X138.49 Y123.939 E59.76457
G1 X139.542 Y125.789 E59.83536
G1 X140.216 Y127.89 E59.90874
G1 X140.387 Y129.727 E59.97011
G1 X140.398 Y140.062 E60.31385
G1 X140.227 Y142.036 E60.37975
G1 X139.637 Y143.971 E60.44703
G1 X138.636 Y145.833 E60.51735
G1 X137.344 Y147.394 E60.58474
G1 X135.818 Y148.653 E60.65054
G1 X133.972 Y149.636 E60.7201
G1 X131.981 Y150.227 E60.78918
G1 X129.999 Y150.4 E60.85535
G1 X89.474 Y150.373 E62.20322
G1 X87.977 Y150.225 E62.25325
G1 X85.98 Y149.623 E62.32262
G1 X84.187 Y148.652 E62.39044
G1 X82.603 Y147.341 E62.45883
G1 X81.342 Y145.803 E62.52498
G1 X80.366 Y143.975 E62.5939
G1 X79.774 Y141.982 E62.66305
G1 X79.6 Y139.994 E62.72943
G1 X79.627 Y129.489 E63.07883
G1 X79.823 Y127.868 E63.13313
G1 X80.32 Y126.114 E63.19377
G1 X81.387 Y124.19 E63.26694
G1 X82.328 Y122.941 E63.31896
G1 X83.65 Y121.767 E63.37776
G1 X84.131 Y121.381 E63.39827
G1 X84.379 Y121.141 E63.40975
G1 X84.677 Y120.706 E63.42729
G1 X84.678 Y99.336 E64.13806
G1 X84.517 Y99.038 E64.14932
G1 X84.308 Y98.794 E64.16001
G1 X84.102 Y98.59 E64.16965
G1 X83.514 Y98.121 E64.19467
G1 X82.343 Y97.069 E64.24703
G1 X81.166 Y95.525 E64.3116
G1 X80.313 Y93.837 E64.3745
G1 X79.746 Y91.863 E64.44281
G1 X79.6 Y89.994 E64.50517
G1 X79.627 Y79.474 E64.85506
G1 X79.775 Y77.975 E64.90516
G1 X80.376 Y75.981 E64.97443
G1 X81.348 Y74.187 E65.04229
G1 X82.657 Y72.605 E65.11059
G0 F9000 X82.94 Y72.89
G1 F1800 X84.409 Y71.679 E65.17391
G1 X86.182 Y70.735 E65.24072
G1 X88.094 Y70.167 E65.30706
G1 X90.001 Y70 E65.37073
G1 X129.999 Y70 E66.70107
G1 X131.933 Y70.169 E66.76564
G1 X133.849 Y70.744 E66.83217
G1 X135.61 Y71.69 E66.89866
G1 X137.104 Y72.931 E66.96326
G1 X138.321 Y74.409 E67.02693
G1 X139.264 Y76.181 E67.0937
G1 X139.832 Y78.093 E67.16004
G1 X140 Y80.005 E67.22388
G1 X139.975 Y90.523 E67.57371
G1 X139.814 Y92.067 E67.62534
G1 X139.204 Y93.977 E67.69203
G1 X138.15 Y95.845 E67.76336
G1 X136.804 Y97.365 E67.83089
G1 X135.437 Y98.387 E67.88766
G1 X135.13 Y98.599 E67.90007
G1 X134.998 Y98.753 E67.90682
G1 X134.965 Y98.851 E67.91026
G1 X134.965 Y121.172 E68.65266
G1 X135.107 Y121.387 E68.66123
G1 X135.584 Y121.716 E68.6805
G1 X136.784 Y122.616 E68.73039
G1 X138.162 Y124.173 E68.79954
G1 X139.174 Y125.952 E68.86762
G1 X139.822 Y127.972 E68.93817
G1 X139.987 Y129.727 E68.9968
G1 X139.999 Y140.028 E69.33942
G1 X139.832 Y141.959 E69.40388
G1 X139.265 Y143.819 E69.46856
G1 X138.302 Y145.609 E69.53616
G1 X137.063 Y147.107 E69.60082
G1 X135.591 Y148.321 E69.66428
G1 X133.818 Y149.265 E69.73109
G1 X131.906 Y149.833 E69.79743
G1 X129.999 Y150 E69.8611
G1 X89.513 Y149.975 E71.20767
G1 X88.055 Y149.831 E71.2564
G1 X86.137 Y149.253 E71.32302
G1 X84.409 Y148.317 E71.38839
G1 X82.888 Y147.058 E71.45406
G1 X81.676 Y145.58 E71.51763
G1 X80.737 Y143.821 E71.58395
G1 X80.168 Y141.907 E71.65036
G1 X80 Y139.995 E71.7142
G1 X80.024 Y129.536 E72.06207
G1 X80.208 Y127.977 E72.11428
G1 X80.693 Y126.266 E72.17343
G1 X81.706 Y124.431 E72.24315
G1 X82.622 Y123.215 E72.29378
G1 X83.9 Y122.079 E72.35065
G1 X84.394 Y121.683 E72.37171
G1 X84.688 Y121.398 E72.38533
G1 X84.917 Y121.063 E72.39883
